(G-CODE GENERATED BY FLATCAM v8.994 - www.flatcam.org - Version Date: 2020/11/7)

(Name: 4050 level shifter-B_Cu.gbr_ncc_3_cnc)
(Type: G-code from Geometry)
(Units: MM)

(Created on domingo, 05 abril 2026 at 16:22)

(This preprocessor is the default preprocessor used by FlatCAM.)
(It is made to work with MACH3 compatible motion controllers.)

(TOOL DIAMETER: 1.0 mm)
(Feedrate_XY: 120.0 mm/min)
(Feedrate_Z: 60.0 mm/min)
(Feedrate rapids 1500.0 mm/min)

(Z_Cut: -0.6 mm)
(Z_Move: 2.0 mm)
(Z Start: None mm)
(Z End: 15.0 mm)
(X,Y End: None mm)
(Steps per circle: 64)
(Preprocessor Geometry: default)

(X range:    0.6305 ...   74.7895  mm)
(Y range:  -51.3295 ...   -0.0305  mm)

(Spindle Speed: 0.0 RPM)
G21
G90
G94

G01 F120.00

M5
G00 Z15.0000
G00 X0.0000 Y0.0000
T1
M6    
(MSG, Change to Tool Dia = 1.0000)
M0
G00 Z15.0000

M03
G01 F120.00
G00 X1.0728 Y-0.4596
G01 F60.00
G01 Z-0.6000
G01 F120.00
G01 X1.0635 Y-0.4678
G01 X1.0455 Y-0.4850
G01 X1.0369 Y-0.4939
G01 X1.0203 Y-0.5124
G01 X1.0046 Y-0.5316
G01 X0.9971 Y-0.5416
G01 X0.9829 Y-0.5619
G01 X0.9698 Y-0.5830
G01 X0.9636 Y-0.5938
G01 X0.9577 Y-0.6047
G01 X0.9467 Y-0.6269
G01 X0.9416 Y-0.6383
G01 X0.9323 Y-0.6613
G01 X0.9280 Y-0.6729
G01 X0.9204 Y-0.6966
G01 X0.9618 Y-0.5557
G01 X1.0728 Y-0.4596
G00 Z2.0000
G00 X0.8805 Y-0.9045
G01 F60.00
G01 Z-0.6000
G01 F120.00
G01 X0.8805 Y-0.8326
G01 X0.9008 Y-0.7636
G01 X0.8946 Y-0.7866
G01 X0.8919 Y-0.7982
G01 X0.8895 Y-0.8099
G01 X0.8856 Y-0.8333
G01 X0.8828 Y-0.8570
G01 X0.8818 Y-0.8688
G01 X0.8811 Y-0.8807
G01 X0.8805 Y-0.9045
G00 Z2.0000
G00 X5.2245 Y-15.2841
G01 F60.00
G01 Z-0.6000
G01 F120.00
G01 X5.2467 Y-15.1441
G01 X5.2905 Y-15.0093
G01 X5.3548 Y-14.8830
G01 X5.4381 Y-14.7684
G01 X6.9667 Y-13.2398
G01 X6.9852 Y-13.2203
G01 X7.0025 Y-13.1999
G01 X7.0267 Y-13.1697
G01 X7.0412 Y-13.1498
G01 X7.0480 Y-13.1396
G01 X7.0610 Y-13.1188
G01 X7.0670 Y-13.1081
G01 X7.0784 Y-13.0864
G01 X7.0837 Y-13.0753
G01 X7.0934 Y-13.0528
G01 X7.1021 Y-13.0298
G01 X7.1096 Y-13.0064
G01 X7.1325 Y-12.9279
G01 X7.1381 Y-12.9048
G01 X7.1405 Y-12.8932
G01 X7.1426 Y-12.8814
G01 X7.1460 Y-12.8579
G01 X7.1482 Y-12.8342
G01 X7.1489 Y-12.8223
G01 X7.1495 Y-12.7985
G01 X7.1495 Y-12.0942
G01 X7.1539 Y-12.0443
G01 X7.1828 Y-11.9434
G01 X7.2288 Y-11.8553
G01 X7.2949 Y-11.7738
G01 X7.3732 Y-11.7099
G01 X7.4634 Y-11.6628
G01 X7.5643 Y-11.6339
G01 X7.6141 Y-11.6295
G01 X9.3859 Y-11.6295
G01 X9.4357 Y-11.6339
G01 X9.5366 Y-11.6628
G01 X9.6268 Y-11.7099
G01 X9.6713 Y-11.7462
G01 X9.6905 Y-11.7612
G01 X9.7103 Y-11.7755
G01 X9.7308 Y-11.7889
G01 X9.7520 Y-11.8013
G01 X9.7737 Y-11.8126
G01 X9.7848 Y-11.8178
G01 X9.8072 Y-11.8275
G01 X9.8302 Y-11.8361
G01 X9.9080 Y-11.8629
G01 X9.9318 Y-11.8698
G01 X9.9439 Y-11.8728
G01 X9.9682 Y-11.8780
G01 X9.9927 Y-11.8819
G01 X10.0174 Y-11.8846
G01 X10.0421 Y-11.8861
G01 X10.0546 Y-11.8864
G01 X10.0794 Y-11.8861
G01 X10.1042 Y-11.8845
G01 X10.1288 Y-11.8817
G01 X10.1533 Y-11.8776
G01 X10.1776 Y-11.8724
G01 X10.2455 Y-11.8559
G01 X10.2685 Y-11.8497
G01 X10.2799 Y-11.8462
G01 X10.3024 Y-11.8385
G01 X10.3135 Y-11.8342
G01 X10.3245 Y-11.8296
G01 X10.3461 Y-11.8197
G01 X10.3568 Y-11.8144
G01 X10.3776 Y-11.8030
G01 X10.4414 Y-11.7662
G01 X10.6050 Y-11.6984
G01 X10.7760 Y-11.6526
G01 X10.9515 Y-11.6295
G01 X11.1285 Y-11.6295
G01 X11.3040 Y-11.6526
G01 X11.4750 Y-11.6984
G01 X11.6386 Y-11.7662
G01 X11.7919 Y-11.8547
G01 X11.9168 Y-11.9506
G01 X11.9421 Y-11.9688
G01 X11.9630 Y-11.9828
G01 X11.9847 Y-11.9957
G01 X12.0069 Y-12.0074
G01 X12.0297 Y-12.0181
G01 X12.0530 Y-12.0276
G01 X12.0768 Y-12.0359
G01 X12.1558 Y-12.0592
G01 X12.1673 Y-12.0625
G01 X12.1904 Y-12.0681
G01 X12.2021 Y-12.0705
G01 X12.2255 Y-12.0744
G01 X12.2492 Y-12.0772
G01 X12.2610 Y-12.0782
G01 X12.2848 Y-12.0794
G01 X12.3233 Y-12.0795
G01 X12.3441 Y-12.0791
G01 X12.3670 Y-12.0780
G01 X12.3921 Y-12.0756
G01 X12.4170 Y-12.0721
G01 X12.4417 Y-12.0673
G01 X12.4539 Y-12.0644
G01 X12.4782 Y-12.0577
G01 X12.5021 Y-12.0498
G01 X12.5791 Y-12.0202
G01 X12.6011 Y-12.0111
G01 X12.6119 Y-12.0062
G01 X12.6332 Y-11.9955
G01 X12.6539 Y-11.9839
G01 X12.6641 Y-11.9777
G01 X12.6839 Y-11.9646
G01 X12.7032 Y-11.9506
G01 X12.8281 Y-11.8547
G01 X12.9814 Y-11.7662
G01 X13.1450 Y-11.6984
G01 X13.3160 Y-11.6526
G01 X13.4915 Y-11.6295
G01 X13.6685 Y-11.6295
G01 X13.8440 Y-11.6526
G01 X14.0150 Y-11.6984
G01 X14.1786 Y-11.7662
G01 X14.3319 Y-11.8547
G01 X14.4568 Y-11.9506
G01 X14.4821 Y-11.9688
G01 X14.5030 Y-11.9828
G01 X14.5247 Y-11.9957
G01 X14.5469 Y-12.0074
G01 X14.5697 Y-12.0181
G01 X14.5930 Y-12.0276
G01 X14.6168 Y-12.0359
G01 X14.6958 Y-12.0592
G01 X14.7073 Y-12.0625
G01 X14.7304 Y-12.0681
G01 X14.7421 Y-12.0705
G01 X14.7655 Y-12.0744
G01 X14.7892 Y-12.0772
G01 X14.8010 Y-12.0782
G01 X14.8248 Y-12.0794
G01 X14.8633 Y-12.0795
G01 X14.8841 Y-12.0791
G01 X14.9070 Y-12.0780
G01 X14.9321 Y-12.0756
G01 X14.9570 Y-12.0721
G01 X14.9817 Y-12.0673
G01 X14.9939 Y-12.0644
G01 X15.0182 Y-12.0577
G01 X15.0421 Y-12.0498
G01 X15.1191 Y-12.0202
G01 X15.1301 Y-12.0158
G01 X15.1519 Y-12.0062
G01 X15.1732 Y-11.9955
G01 X15.1939 Y-11.9839
G01 X15.2041 Y-11.9777
G01 X15.2239 Y-11.9646
G01 X15.2432 Y-11.9506
G01 X15.3681 Y-11.8547
G01 X15.5214 Y-11.7662
G01 X15.6850 Y-11.6984
G01 X15.8560 Y-11.6526
G01 X16.0315 Y-11.6295
G01 X16.2085 Y-11.6295
G01 X16.3840 Y-11.6526
G01 X16.5550 Y-11.6984
G01 X16.7186 Y-11.7662
G01 X16.8719 Y-11.8547
G01 X17.0124 Y-11.9625
G01 X17.1375 Y-12.0876
G01 X17.2453 Y-12.2281
G01 X17.3338 Y-12.3814
G01 X17.4016 Y-12.5450
G01 X17.4474 Y-12.7160
G01 X17.4705 Y-12.8915
G01 X17.4705 Y-13.0685
G01 X17.4474 Y-13.2440
G01 X17.4016 Y-13.4150
G01 X17.3338 Y-13.5786
G01 X17.2453 Y-13.7319
G01 X17.1375 Y-13.8724
G01 X17.0124 Y-13.9975
G01 X16.8719 Y-14.1053
G01 X16.7186 Y-14.1938
G01 X16.5550 Y-14.2616
G01 X16.3840 Y-14.3074
G01 X16.2085 Y-14.3305
G01 X16.0315 Y-14.3305
G01 X15.8560 Y-14.3074
G01 X15.6850 Y-14.2616
G01 X15.5214 Y-14.1938
G01 X15.3681 Y-14.1053
G01 X15.2431 Y-14.0094
G01 X15.2179 Y-13.9911
G01 X15.1969 Y-13.9772
G01 X15.1753 Y-13.9643
G01 X15.1531 Y-13.9525
G01 X15.1303 Y-13.9419
G01 X15.1070 Y-13.9324
G01 X15.0832 Y-13.9241
G01 X15.0042 Y-13.9008
G01 X14.9927 Y-13.8975
G01 X14.9696 Y-13.8919
G01 X14.9462 Y-13.8874
G01 X14.9227 Y-13.8840
G01 X14.9108 Y-13.8828
G01 X14.8990 Y-13.8818
G01 X14.8752 Y-13.8806
G01 X14.8367 Y-13.8805
G01 X14.8159 Y-13.8809
G01 X14.7930 Y-13.8820
G01 X14.7679 Y-13.8844
G01 X14.7430 Y-13.8879
G01 X14.7183 Y-13.8927
G01 X14.7061 Y-13.8956
G01 X14.6818 Y-13.9023
G01 X14.6579 Y-13.9102
G01 X14.5809 Y-13.9398
G01 X14.5699 Y-13.9442
G01 X14.5481 Y-13.9538
G01 X14.5268 Y-13.9645
G01 X14.5061 Y-13.9761
G01 X14.4859 Y-13.9887
G01 X14.4761 Y-13.9954
G01 X14.4568 Y-14.0094
G01 X14.3319 Y-14.1053
G01 X14.1786 Y-14.1938
G01 X14.0150 Y-14.2616
G01 X13.8440 Y-14.3074
G01 X13.6685 Y-14.3305
G01 X13.4915 Y-14.3305
G01 X13.3160 Y-14.3074
G01 X13.1450 Y-14.2616
G01 X12.9814 Y-14.1938
G01 X12.8281 Y-14.1053
G01 X12.7031 Y-14.0094
G01 X12.6779 Y-13.9911
G01 X12.6569 Y-13.9772
G01 X12.6353 Y-13.9643
G01 X12.6131 Y-13.9525
G01 X12.5903 Y-13.9419
G01 X12.5670 Y-13.9324
G01 X12.5432 Y-13.9241
G01 X12.5312 Y-13.9204
G01 X12.4527 Y-13.8975
G01 X12.4412 Y-13.8946
G01 X12.4179 Y-13.8895
G01 X12.3945 Y-13.8856
G01 X12.3708 Y-13.8828
G01 X12.3590 Y-13.8818
G01 X12.3352 Y-13.8806
G01 X12.2863 Y-13.8806
G01 X12.2530 Y-13.8820
G01 X12.2279 Y-13.8844
G01 X12.2030 Y-13.8879
G01 X12.1783 Y-13.8927
G01 X12.1661 Y-13.8956
G01 X12.1418 Y-13.9023
G01 X12.1179 Y-13.9102
G01 X12.0409 Y-13.9398
G01 X12.0189 Y-13.9489
G01 X11.9974 Y-13.9590
G01 X11.9764 Y-13.9702
G01 X11.9559 Y-13.9823
G01 X11.9361 Y-13.9954
G01 X11.9168 Y-14.0094
G01 X11.7919 Y-14.1053
G01 X11.6386 Y-14.1938
G01 X11.4750 Y-14.2616
G01 X11.3040 Y-14.3074
G01 X11.1285 Y-14.3305
G01 X10.9515 Y-14.3305
G01 X10.7760 Y-14.3074
G01 X10.6050 Y-14.2616
G01 X10.4414 Y-14.1938
G01 X10.3776 Y-14.1570
G01 X10.3454 Y-14.1396
G01 X10.3233 Y-14.1292
G01 X10.3007 Y-14.1198
G01 X10.2776 Y-14.1115
G01 X10.2659 Y-14.1078
G01 X10.2424 Y-14.1013
G01 X10.2185 Y-14.0959
G01 X10.1376 Y-14.0816
G01 X10.1131 Y-14.0780
G01 X10.0883 Y-14.0755
G01 X10.0635 Y-14.0743
G01 X10.0387 Y-14.0744
G01 X10.0139 Y-14.0756
G01 X9.9892 Y-14.0781
G01 X9.9646 Y-14.0818
G01 X9.9403 Y-14.0868
G01 X9.9162 Y-14.0929
G01 X9.8925 Y-14.1002
G01 X9.8692 Y-14.1087
G01 X9.7933 Y-14.1405
G01 X9.7716 Y-14.1502
G01 X9.7504 Y-14.1610
G01 X9.7297 Y-14.1728
G01 X9.7096 Y-14.1855
G01 X9.6998 Y-14.1922
G01 X9.6806 Y-14.2064
G01 X9.6268 Y-14.2501
G01 X9.5366 Y-14.2972
G01 X9.4357 Y-14.3261
G01 X9.3859 Y-14.3305
G01 X8.6681 Y-14.3307
G01 X8.6413 Y-14.3321
G01 X8.6280 Y-14.3334
G01 X8.6017 Y-14.3362
G01 X8.5773 Y-14.3394
G01 X8.5652 Y-14.3415
G01 X8.5412 Y-14.3465
G01 X8.5175 Y-14.3527
G01 X8.4940 Y-14.3600
G01 X8.4825 Y-14.3641
G01 X8.4597 Y-14.3731
G01 X8.4484 Y-14.3781
G01 X8.4263 Y-14.3887
G01 X8.3542 Y-14.4280
G01 X8.3336 Y-14.4399
G01 X8.3235 Y-14.4462
G01 X8.3038 Y-14.4595
G01 X8.2847 Y-14.4738
G01 X8.2664 Y-14.4889
G01 X8.2487 Y-14.5049
G01 X7.2083 Y-15.5452
G01 X7.1898 Y-15.5647
G01 X7.1810 Y-15.5748
G01 X7.1483 Y-15.6154
G01 X7.1409 Y-15.6252
G01 X7.1270 Y-15.6454
G01 X7.1140 Y-15.6662
G01 X7.1021 Y-15.6877
G01 X7.0913 Y-15.7097
G01 X7.0863 Y-15.7209
G01 X7.0771 Y-15.7437
G01 X7.0690 Y-15.7668
G01 X7.0458 Y-15.8456
G01 X7.0425 Y-15.8571
G01 X7.0369 Y-15.8802
G01 X7.0324 Y-15.9035
G01 X7.0306 Y-15.9153
G01 X7.0278 Y-15.9389
G01 X7.0268 Y-15.9508
G01 X7.0261 Y-15.9627
G01 X7.0255 Y-15.9865
G01 X7.0256 Y-21.6851
G01 X7.0268 Y-21.7092
G01 X7.0291 Y-21.7332
G01 X7.0326 Y-21.7570
G01 X7.0372 Y-21.7807
G01 X7.0430 Y-21.8041
G01 X7.0634 Y-21.8788
G01 X7.0672 Y-21.8908
G01 X7.0755 Y-21.9144
G01 X7.0850 Y-21.9375
G01 X7.0957 Y-21.9601
G01 X7.1075 Y-21.9822
G01 X7.1204 Y-22.0037
G01 X7.1343 Y-22.0245
G01 X7.1493 Y-22.0445
G01 X7.1652 Y-22.0638
G01 X7.1815 Y-22.0817
G01 X7.1583 Y-22.1132
G01 X7.1447 Y-22.1336
G01 X7.1257 Y-22.1651
G01 X7.1136 Y-22.1865
G01 X7.1025 Y-22.2084
G01 X7.0869 Y-22.2417
G01 X7.0775 Y-22.2644
G01 X7.0650 Y-22.2990
G01 X7.0573 Y-22.3223
G01 X7.0507 Y-22.3459
G01 X7.0420 Y-22.3817
G01 X7.0372 Y-22.4057
G01 X7.0316 Y-22.4421
G01 X7.0286 Y-22.4665
G01 X7.0268 Y-22.4910
G01 X7.0252 Y-22.5264
G01 X7.0252 Y-15.7279
G01 X8.4231 Y-14.3300
G01 X9.3623 Y-14.3298
G01 X9.3745 Y-14.3294
G01 X9.3990 Y-14.3276
G01 X9.4234 Y-14.3246
G01 X9.4475 Y-14.3204
G01 X9.4596 Y-14.3179
G01 X9.4834 Y-14.3119
G01 X9.4951 Y-14.3085
G01 X9.5184 Y-14.3008
G01 X9.5299 Y-14.2965
G01 X9.5526 Y-14.2871
G01 X9.5638 Y-14.2820
G01 X9.5748 Y-14.2766
G01 X9.5964 Y-14.2650
G01 X9.6175 Y-14.2524
G01 X9.6278 Y-14.2457
G01 X9.6379 Y-14.2388
G01 X9.6576 Y-14.2242
G01 X9.6766 Y-14.2086
G01 X9.6858 Y-14.2005
G01 X9.7036 Y-14.1836
G01 X9.7121 Y-14.1748
G01 X9.7286 Y-14.1566
G01 X9.7365 Y-14.1472
G01 X9.7442 Y-14.1376
G01 X9.7588 Y-14.1179
G01 X9.7657 Y-14.1078
G01 X9.7789 Y-14.0871
G01 X9.7910 Y-14.0657
G01 X9.7966 Y-14.0548
G01 X9.8020 Y-14.0438
G01 X9.8119 Y-14.0213
G01 X9.8165 Y-14.0099
G01 X9.8248 Y-13.9868
G01 X9.8285 Y-13.9751
G01 X9.8350 Y-13.9515
G01 X9.8379 Y-13.9396
G01 X9.8426 Y-13.9155
G01 X9.8446 Y-13.9034
G01 X9.8475 Y-13.8802
G01 X10.0353 Y-13.8802
G01 X10.0768 Y-13.9258
G01 X10.0942 Y-13.9432
G01 X10.1650 Y-14.0075
G01 X10.1836 Y-14.0236
G01 X10.1931 Y-14.0312
G01 X10.2699 Y-14.0884
G01 X10.2900 Y-14.1025
G01 X10.3107 Y-14.1156
G01 X10.3823 Y-14.1585
G01 X10.4036 Y-14.1706
G01 X10.4145 Y-14.1762
G01 X10.5009 Y-14.2173
G01 X10.5234 Y-14.2272
G01 X10.5463 Y-14.2361
G01 X10.6248 Y-14.2642
G01 X10.6481 Y-14.2719
G01 X10.6718 Y-14.2784
G01 X10.7527 Y-14.2987
G01 X10.7766 Y-14.3041
G01 X10.8008 Y-14.3083
G01 X10.8833 Y-14.3205
G01 X10.9077 Y-14.3235
G01 X10.9199 Y-14.3246
G01 X11.0155 Y-14.3294
G01 X11.0277 Y-14.3298
G01 X11.0523 Y-14.3298
G01 X11.1601 Y-14.3246
G01 X11.1845 Y-14.3221
G01 X11.1967 Y-14.3205
G01 X11.2792 Y-14.3083
G01 X11.3034 Y-14.3041
G01 X11.3273 Y-14.2987
G01 X11.4082 Y-14.2784
G01 X11.4201 Y-14.2753
G01 X11.4436 Y-14.2682
G01 X11.5452 Y-14.2318
G01 X11.5679 Y-14.2224
G01 X11.5791 Y-14.2173
G01 X11.6545 Y-14.1816
G01 X11.6764 Y-14.1706
G01 X11.6977 Y-14.1585
G01 X11.7693 Y-14.1156
G01 X11.7797 Y-14.1092
G01 X11.8001 Y-14.0955
G01 X11.8771 Y-14.0387
G01 X11.8869 Y-14.0312
G01 X11.9058 Y-14.0157
G01 X11.9858 Y-13.9432
G01 X12.0032 Y-13.9258
G01 X12.0444 Y-13.8806
G01 X12.5754 Y-13.8803
G01 X12.6168 Y-13.9258
G01 X12.6342 Y-13.9432
G01 X12.7050 Y-14.0075
G01 X12.7236 Y-14.0236
G01 X12.7331 Y-14.0312
G01 X12.8099 Y-14.0884
G01 X12.8300 Y-14.1025
G01 X12.8507 Y-14.1156
G01 X12.9223 Y-14.1585
G01 X12.9436 Y-14.1706
G01 X12.9545 Y-14.1762
G01 X13.0409 Y-14.2173
G01 X13.0634 Y-14.2272
G01 X13.0863 Y-14.2361
G01 X13.1648 Y-14.2642
G01 X13.1881 Y-14.2719
G01 X13.2118 Y-14.2784
G01 X13.2927 Y-14.2987
G01 X13.3166 Y-14.3041
G01 X13.3408 Y-14.3083
G01 X13.4233 Y-14.3205
G01 X13.4477 Y-14.3235
G01 X13.4722 Y-14.3253
G01 X13.5555 Y-14.3294
G01 X13.5800 Y-14.3300
G01 X13.6045 Y-14.3294
G01 X13.6878 Y-14.3253
G01 X13.7123 Y-14.3235
G01 X13.7367 Y-14.3205
G01 X13.8192 Y-14.3083
G01 X13.8434 Y-14.3041
G01 X13.8673 Y-14.2987
G01 X13.9482 Y-14.2784
G01 X13.9601 Y-14.2753
G01 X13.9836 Y-14.2682
G01 X14.0852 Y-14.2318
G01 X14.1079 Y-14.2224
G01 X14.1191 Y-14.2173
G01 X14.1945 Y-14.1816
G01 X14.2164 Y-14.1706
G01 X14.2377 Y-14.1585
G01 X14.3093 Y-14.1156
G01 X14.3197 Y-14.1092
G01 X14.3401 Y-14.0955
G01 X14.4171 Y-14.0387
G01 X14.4269 Y-14.0312
G01 X14.4458 Y-14.0157
G01 X14.5258 Y-13.9432
G01 X14.5432 Y-13.9258
G01 X14.5844 Y-13.8806
G01 X15.1154 Y-13.8803
G01 X15.1568 Y-13.9258
G01 X15.1742 Y-13.9432
G01 X15.2542 Y-14.0157
G01 X15.2636 Y-14.0236
G01 X15.2829 Y-14.0387
G01 X15.3499 Y-14.0884
G01 X15.3700 Y-14.1025
G01 X15.3803 Y-14.1092
G01 X15.4729 Y-14.1647
G01 X15.4836 Y-14.1706
G01 X15.5055 Y-14.1816
G01 X15.5809 Y-14.2173
G01 X15.6034 Y-14.2272
G01 X15.6263 Y-14.2361
G01 X15.7164 Y-14.2682
G01 X15.7281 Y-14.2719
G01 X15.7518 Y-14.2784
G01 X15.8327 Y-14.2987
G01 X15.8566 Y-14.3041
G01 X15.8808 Y-14.3083
G01 X15.9633 Y-14.3205
G01 X15.9877 Y-14.3235
G01 X16.0122 Y-14.3253
G01 X16.0955 Y-14.3294
G01 X16.1200 Y-14.3300
G01 X16.1445 Y-14.3294
G01 X16.2278 Y-14.3253
G01 X16.2401 Y-14.3246
G01 X16.2645 Y-14.3221
G01 X16.3713 Y-14.3063
G01 X16.3834 Y-14.3041
G01 X16.4073 Y-14.2987
G01 X16.4882 Y-14.2784
G01 X16.5119 Y-14.2719
G01 X16.5352 Y-14.2642
G01 X16.6137 Y-14.2361
G01 X16.6366 Y-14.2272
G01 X16.6591 Y-14.2173
G01 X16.7345 Y-14.1816
G01 X16.7564 Y-14.1706
G01 X16.7777 Y-14.1585
G01 X16.8493 Y-14.1156
G01 X16.8700 Y-14.1025
G01 X16.8901 Y-14.0884
G01 X16.9571 Y-14.0387
G01 X16.9764 Y-14.0236
G01 X16.9950 Y-14.0075
G01 X17.0568 Y-13.9515
G01 X17.0746 Y-13.9346
G01 X17.0915 Y-13.9168
G01 X17.1475 Y-13.8550
G01 X17.1636 Y-13.8364
G01 X17.1787 Y-13.8171
G01 X17.2284 Y-13.7501
G01 X17.2425 Y-13.7300
G01 X17.2556 Y-13.7093
G01 X17.2985 Y-13.6377
G01 X17.3106 Y-13.6164
G01 X17.3216 Y-13.5945
G01 X17.3573 Y-13.5191
G01 X17.3672 Y-13.4966
G01 X17.3761 Y-13.4737
G01 X17.4042 Y-13.3952
G01 X17.4119 Y-13.3719
G01 X17.4184 Y-13.3482
G01 X17.4387 Y-13.2673
G01 X17.4441 Y-13.2434
G01 X17.4483 Y-13.2192
G01 X17.4605 Y-13.1367
G01 X17.4635 Y-13.1123
G01 X17.4653 Y-13.0878
G01 X17.4694 Y-13.0045
G01 X17.4700 Y-12.9800
G01 X17.4694 Y-12.9555
G01 X17.4653 Y-12.8722
G01 X17.4635 Y-12.8477
G01 X17.4605 Y-12.8233
G01 X17.4483 Y-12.7408
G01 X17.4441 Y-12.7166
G01 X17.4415 Y-12.7046
G01 X17.4184 Y-12.6118
G01 X17.4119 Y-12.5881
G01 X17.4042 Y-12.5648
G01 X17.3718 Y-12.4748
G01 X17.3624 Y-12.4521
G01 X17.3573 Y-12.4409
G01 X17.3216 Y-12.3655
G01 X17.3106 Y-12.3436
G01 X17.2985 Y-12.3223
G01 X17.2556 Y-12.2507
G01 X17.2425 Y-12.2300
G01 X17.2284 Y-12.2099
G01 X17.1787 Y-12.1429
G01 X17.1636 Y-12.1236
G01 X17.1475 Y-12.1050
G01 X17.0915 Y-12.0432
G01 X17.0746 Y-12.0254
G01 X17.0568 Y-12.0085
G01 X16.9950 Y-11.9525
G01 X16.9764 Y-11.9364
G01 X16.9669 Y-11.9288
G01 X16.8901 Y-11.8716
G01 X16.8700 Y-11.8575
G01 X16.8493 Y-11.8444
G01 X16.7777 Y-11.8015
G01 X16.7564 Y-11.7894
G01 X16.7345 Y-11.7784
G01 X16.6591 Y-11.7427
G01 X16.6366 Y-11.7328
G01 X16.6137 Y-11.7239
G01 X16.5352 Y-11.6958
G01 X16.5119 Y-11.6881
G01 X16.4882 Y-11.6816
G01 X16.4073 Y-11.6613
G01 X16.3834 Y-11.6559
G01 X16.3592 Y-11.6517
G01 X16.2767 Y-11.6395
G01 X16.2523 Y-11.6365
G01 X16.2278 Y-11.6347
G01 X16.1445 Y-11.6306
G01 X16.1200 Y-11.6300
G01 X16.0955 Y-11.6306
G01 X16.0122 Y-11.6347
G01 X15.9877 Y-11.6365
G01 X15.9633 Y-11.6395
G01 X15.8808 Y-11.6517
G01 X15.8566 Y-11.6559
G01 X15.8327 Y-11.6613
G01 X15.7518 Y-11.6816
G01 X15.7399 Y-11.6847
G01 X15.7164 Y-11.6918
G01 X15.6148 Y-11.7282
G01 X15.5921 Y-11.7376
G01 X15.5809 Y-11.7427
G01 X15.5055 Y-11.7784
G01 X15.4836 Y-11.7894
G01 X15.4623 Y-11.8015
G01 X15.3907 Y-11.8444
G01 X15.3803 Y-11.8508
G01 X15.3599 Y-11.8645
G01 X15.2829 Y-11.9213
G01 X15.2731 Y-11.9288
G01 X15.2542 Y-11.9443
G01 X15.1742 Y-12.0168
G01 X15.1568 Y-12.0342
G01 X15.1156 Y-12.0794
G01 X14.5846 Y-12.0797
G01 X14.5432 Y-12.0342
G01 X14.5258 Y-12.0168
G01 X14.4550 Y-11.9525
G01 X14.4364 Y-11.9364
G01 X14.4269 Y-11.9288
G01 X14.3501 Y-11.8716
G01 X14.3300 Y-11.8575
G01 X14.3093 Y-11.8444
G01 X14.2377 Y-11.8015
G01 X14.2164 Y-11.7894
G01 X14.2055 Y-11.7838
G01 X14.1191 Y-11.7427
G01 X14.0966 Y-11.7328
G01 X14.0737 Y-11.7239
G01 X13.9952 Y-11.6958
G01 X13.9719 Y-11.6881
G01 X13.9482 Y-11.6816
G01 X13.8673 Y-11.6613
G01 X13.8434 Y-11.6559
G01 X13.8192 Y-11.6517
G01 X13.7367 Y-11.6395
G01 X13.7123 Y-11.6365
G01 X13.7001 Y-11.6354
G01 X13.6045 Y-11.6306
G01 X13.5923 Y-11.6302
G01 X13.5677 Y-11.6302
G01 X13.4599 Y-11.6354
G01 X13.4355 Y-11.6379
G01 X13.4233 Y-11.6395
G01 X13.3408 Y-11.6517
G01 X13.3166 Y-11.6559
G01 X13.2927 Y-11.6613
G01 X13.2118 Y-11.6816
G01 X13.1999 Y-11.6847
G01 X13.1764 Y-11.6918
G01 X13.0748 Y-11.7282
G01 X13.0521 Y-11.7376
G01 X13.0409 Y-11.7427
G01 X12.9655 Y-11.7784
G01 X12.9436 Y-11.7894
G01 X12.9223 Y-11.8015
G01 X12.8507 Y-11.8444
G01 X12.8403 Y-11.8508
G01 X12.8199 Y-11.8645
G01 X12.7429 Y-11.9213
G01 X12.7331 Y-11.9288
G01 X12.7142 Y-11.9443
G01 X12.6342 Y-12.0168
G01 X12.6168 Y-12.0342
G01 X12.5756 Y-12.0794
G01 X12.0446 Y-12.0797
G01 X12.0032 Y-12.0342
G01 X11.9858 Y-12.0168
G01 X11.9150 Y-11.9525
G01 X11.8964 Y-11.9364
G01 X11.8869 Y-11.9288
G01 X11.8101 Y-11.8716
G01 X11.7900 Y-11.8575
G01 X11.7693 Y-11.8444
G01 X11.6977 Y-11.8015
G01 X11.6764 Y-11.7894
G01 X11.6655 Y-11.7838
G01 X11.5791 Y-11.7427
G01 X11.5566 Y-11.7328
G01 X11.5337 Y-11.7239
G01 X11.4552 Y-11.6958
G01 X11.4319 Y-11.6881
G01 X11.4082 Y-11.6816
G01 X11.3273 Y-11.6613
G01 X11.3034 Y-11.6559
G01 X11.2792 Y-11.6517
G01 X11.1967 Y-11.6395
G01 X11.1723 Y-11.6365
G01 X11.1478 Y-11.6347
G01 X11.0645 Y-11.6306
G01 X11.0400 Y-11.6300
G01 X11.0155 Y-11.6306
G01 X10.9322 Y-11.6347
G01 X10.9077 Y-11.6365
G01 X10.8833 Y-11.6395
G01 X10.8008 Y-11.6517
G01 X10.7766 Y-11.6559
G01 X10.7527 Y-11.6613
G01 X10.6718 Y-11.6816
G01 X10.6599 Y-11.6847
G01 X10.6364 Y-11.6918
G01 X10.5463 Y-11.7239
G01 X10.5234 Y-11.7328
G01 X10.5009 Y-11.7427
G01 X10.4255 Y-11.7784
G01 X10.4036 Y-11.7894
G01 X10.3929 Y-11.7953
G01 X10.3003 Y-11.8508
G01 X10.2799 Y-11.8645
G01 X10.2699 Y-11.8716
G01 X10.2029 Y-11.9213
G01 X10.1931 Y-11.9288
G01 X10.1742 Y-11.9443
G01 X10.0942 Y-12.0168
G01 X10.0768 Y-12.0342
G01 X10.0356 Y-12.0794
G01 X9.8474 Y-12.0795
G01 X9.8446 Y-12.0566
G01 X9.8404 Y-12.0325
G01 X9.8379 Y-12.0204
G01 X9.8319 Y-11.9966
G01 X9.8248 Y-11.9732
G01 X9.8208 Y-11.9616
G01 X9.8119 Y-11.9387
G01 X9.8071 Y-11.9274
G01 X9.7966 Y-11.9052
G01 X9.7910 Y-11.8943
G01 X9.7789 Y-11.8729
G01 X9.7724 Y-11.8625
G01 X9.7588 Y-11.8421
G01 X9.7442 Y-11.8224
G01 X9.7286 Y-11.8034
G01 X9.7205 Y-11.7942
G01 X9.7036 Y-11.7764
G01 X9.6948 Y-11.7679
G01 X9.6766 Y-11.7514
G01 X9.6672 Y-11.7435
G01 X9.6478 Y-11.7284
G01 X9.6278 Y-11.7143
G01 X9.6071 Y-11.7011
G01 X9.5964 Y-11.6950
G01 X9.5748 Y-11.6834
G01 X9.5638 Y-11.6780
G01 X9.5526 Y-11.6729
G01 X9.5299 Y-11.6635
G01 X9.5068 Y-11.6552
G01 X9.4834 Y-11.6481
G01 X9.4715 Y-11.6450
G01 X9.4475 Y-11.6396
G01 X9.4234 Y-11.6354
G01 X9.3990 Y-11.6324
G01 X9.3745 Y-11.6306
G01 X9.3500 Y-11.6300
G01 X7.6500 Y-11.6300
G01 X7.6377 Y-11.6302
G01 X7.6132 Y-11.6314
G01 X7.5888 Y-11.6338
G01 X7.5645 Y-11.6374
G01 X7.5404 Y-11.6421
G01 X7.5166 Y-11.6481
G01 X7.5049 Y-11.6515
G01 X7.4816 Y-11.6592
G01 X7.4701 Y-11.6635
G01 X7.4587 Y-11.6681
G01 X7.4362 Y-11.6780
G01 X7.4252 Y-11.6834
G01 X7.4036 Y-11.6950
G01 X7.3929 Y-11.7011
G01 X7.3722 Y-11.7143
G01 X7.3522 Y-11.7284
G01 X7.3328 Y-11.7435
G01 X7.3234 Y-11.7514
G01 X7.3052 Y-11.7679
G01 X7.2964 Y-11.7764
G01 X7.2795 Y-11.7942
G01 X7.2714 Y-11.8034
G01 X7.2558 Y-11.8224
G01 X7.2484 Y-11.8322
G01 X7.2412 Y-11.8421
G01 X7.2276 Y-11.8625
G01 X7.2150 Y-11.8836
G01 X7.2090 Y-11.8943
G01 X7.1980 Y-11.9162
G01 X7.1929 Y-11.9274
G01 X7.1835 Y-11.9501
G01 X7.1752 Y-11.9732
G01 X7.1715 Y-11.9849
G01 X7.1681 Y-11.9966
G01 X7.1621 Y-12.0204
G01 X7.1596 Y-12.0325
G01 X7.1554 Y-12.0566
G01 X7.1538 Y-12.0688
G01 X7.1514 Y-12.0932
G01 X7.1502 Y-12.1177
G01 X7.1500 Y-13.0569
G01 X5.4799 Y-14.7272
G01 X5.4452 Y-14.7653
G01 X5.4291 Y-14.7839
G01 X5.4140 Y-14.8033
G01 X5.3835 Y-14.8448
G01 X5.3698 Y-14.8652
G01 X5.3634 Y-14.8756
G01 X5.3370 Y-14.9199
G01 X5.3254 Y-14.9415
G01 X5.2982 Y-14.9992
G01 X5.2888 Y-15.0219
G01 X5.2845 Y-15.0334
G01 X5.2713 Y-15.0704
G01 X5.2636 Y-15.0937
G01 X5.2570 Y-15.1173
G01 X5.2475 Y-15.1554
G01 X5.2421 Y-15.1794
G01 X5.2399 Y-15.1914
G01 X5.2305 Y-15.2546
G01 X5.2281 Y-15.2790
G01 X5.2273 Y-15.2912
G01 X5.2254 Y-15.3305
G01 X5.2248 Y-15.3550
G01 X5.2248 Y-24.7900
G01 X5.2254 Y-24.8145
G01 X5.2273 Y-24.8538
G01 X5.2291 Y-24.8782
G01 X5.2305 Y-24.8904
G01 X5.2399 Y-24.9536
G01 X5.2446 Y-24.9776
G01 X5.2475 Y-24.9896
G01 X5.2570 Y-25.0277
G01 X5.2636 Y-25.0513
G01 X5.2713 Y-25.0746
G01 X5.2845 Y-25.1116
G01 X5.2933 Y-25.1345
G01 X5.2982 Y-25.1458
G01 X5.3254 Y-25.2035
G01 X5.3370 Y-25.2251
G01 X5.3432 Y-25.2357
G01 X5.3634 Y-25.2694
G01 X5.3765 Y-25.2901
G01 X5.3906 Y-25.3102
G01 X5.4140 Y-25.3417
G01 X5.4291 Y-25.3611
G01 X5.4370 Y-25.3705
G01 X5.4715 Y-25.4088
G01 X5.4885 Y-25.4265
G01 X6.3385 Y-26.2765
G01 X6.3562 Y-26.2935
G01 X6.3853 Y-26.3198
G01 X6.4039 Y-26.3359
G01 X6.4233 Y-26.3510
G01 X6.4548 Y-26.3744
G01 X6.4749 Y-26.3885
G01 X6.4852 Y-26.3952
G01 X6.5399 Y-26.4280
G01 X6.5506 Y-26.4339
G01 X6.5726 Y-26.4449
G01 X6.6081 Y-26.4617
G01 X6.6305 Y-26.4717
G01 X6.6534 Y-26.4805
G01 X6.6904 Y-26.4937
G01 X6.7137 Y-26.5014
G01 X6.7373 Y-26.5080
G01 X6.7754 Y-26.5175
G01 X6.7874 Y-26.5204
G01 X6.8114 Y-26.5251
G01 X6.8624 Y-26.5329
G01 X6.8868 Y-26.5359
G01 X6.9112 Y-26.5377
G01 X6.9627 Y-26.5400
G01 X7.3703 Y-26.5402
G01 X7.4118 Y-26.5858
G01 X7.4292 Y-26.6032
G01 X7.5092 Y-26.6757
G01 X7.5281 Y-26.6912
G01 X7.5379 Y-26.6987
G01 X7.6149 Y-26.7555
G01 X7.6250 Y-26.7625
G01 X7.6457 Y-26.7756
G01 X7.7173 Y-26.8185
G01 X7.7386 Y-26.8306
G01 X7.7605 Y-26.8416
G01 X7.8359 Y-26.8773
G01 X7.8471 Y-26.8824
G01 X7.8653 Y-26.8900
G01 X7.8471 Y-26.8976
G01 X7.8359 Y-26.9027
G01 X7.7605 Y-26.9384
G01 X7.7386 Y-26.9494
G01 X7.7173 Y-26.9615
G01 X7.6457 Y-27.0044
G01 X7.6250 Y-27.0175
G01 X7.6049 Y-27.0316
G01 X7.5379 Y-27.0813
G01 X7.5186 Y-27.0964
G01 X7.5000 Y-27.1125
G01 X7.4382 Y-27.1685
G01 X7.4204 Y-27.1854
G01 X7.4035 Y-27.2032
G01 X7.3475 Y-27.2650
G01 X7.3314 Y-27.2836
G01 X7.3163 Y-27.3029
G01 X7.2666 Y-27.3699
G01 X7.2525 Y-27.3900
G01 X7.2394 Y-27.4107
G01 X7.1965 Y-27.4823
G01 X7.1844 Y-27.5036
G01 X7.1734 Y-27.5255
G01 X7.1377 Y-27.6009
G01 X7.1326 Y-27.6121
G01 X7.1232 Y-27.6348
G01 X7.0868 Y-27.7364
G01 X7.0831 Y-27.7481
G01 X7.0766 Y-27.7718
G01 X7.0535 Y-27.8646
G01 X7.0487 Y-27.8887
G01 X7.0467 Y-27.9008
G01 X7.0329 Y-27.9955
G01 X7.0315 Y-28.0077
G01 X7.0297 Y-28.0322
G01 X7.0256 Y-28.1155
G01 X7.0250 Y-28.1400
G01 X7.0252 Y-28.1523
G01 X7.0304 Y-28.2601
G01 X7.0315 Y-28.2723
G01 X7.0345 Y-28.2967
G01 X7.0467 Y-28.3792
G01 X7.0509 Y-28.4034
G01 X7.0563 Y-28.4273
G01 X7.0797 Y-28.5201
G01 X7.0868 Y-28.5436
G01 X7.0908 Y-28.5552
G01 X7.1189 Y-28.6337
G01 X7.1278 Y-28.6566
G01 X7.1377 Y-28.6791
G01 X7.1734 Y-28.7545
G01 X7.1844 Y-28.7764
G01 X7.1965 Y-28.7977
G01 X7.2394 Y-28.8693
G01 X7.2525 Y-28.8900
G01 X7.2666 Y-28.9101
G01 X7.3163 Y-28.9771
G01 X7.3314 Y-28.9964
G01 X7.3475 Y-29.0150
G01 X7.4035 Y-29.0768
G01 X7.4204 Y-29.0946
G01 X7.4382 Y-29.1115
G01 X7.5000 Y-29.1675
G01 X7.5186 Y-29.1836
G01 X7.5379 Y-29.1987
G01 X7.6049 Y-29.2484
G01 X7.6250 Y-29.2625
G01 X7.6457 Y-29.2756
G01 X7.7279 Y-29.3247
G01 X7.7495 Y-29.3362
G01 X7.7605 Y-29.3416
G01 X7.8471 Y-29.3824
G01 X7.8584 Y-29.3872
G01 X7.8813 Y-29.3961
G01 X7.9598 Y-29.4242
G01 X7.9831 Y-29.4319
G01 X8.0068 Y-29.4384
G01 X8.0996 Y-29.4615
G01 X8.1237 Y-29.4663
G01 X8.1358 Y-29.4683
G01 X8.2183 Y-29.4805
G01 X8.2427 Y-29.4835
G01 X8.2672 Y-29.4853
G01 X8.3627 Y-29.4898
G01 X8.6373 Y-29.4898
G01 X8.7328 Y-29.4853
G01 X8.7451 Y-29.4846
G01 X8.7695 Y-29.4821
G01 X8.8642 Y-29.4683
G01 X8.8884 Y-29.4641
G01 X8.9123 Y-29.4587
G01 X8.9932 Y-29.4384
G01 X9.0169 Y-29.4319
G01 X9.0402 Y-29.4242
G01 X9.1187 Y-29.3961
G01 X9.1416 Y-29.3872
G01 X9.1641 Y-29.3773
G01 X9.2395 Y-29.3416
G01 X9.2614 Y-29.3306
G01 X9.2827 Y-29.3185
G01 X9.3647 Y-29.2692
G01 X9.3851 Y-29.2555
G01 X9.3951 Y-29.2484
G01 X9.4621 Y-29.1987
G01 X9.4814 Y-29.1836
G01 X9.5000 Y-29.1675
G01 X9.5618 Y-29.1115
G01 X9.5796 Y-29.0946
G01 X9.5965 Y-29.0768
G01 X9.6525 Y-29.0150
G01 X9.6686 Y-28.9964
G01 X9.6837 Y-28.9771
G01 X9.7334 Y-28.9101
G01 X9.7405 Y-28.9001
G01 X9.7542 Y-28.8797
G01 X9.8035 Y-28.7977
G01 X9.8156 Y-28.7764
G01 X9.8266 Y-28.7545
G01 X9.8623 Y-28.6791
G01 X9.8722 Y-28.6566
G01 X9.8811 Y-28.6337
G01 X9.9092 Y-28.5552
G01 X9.9169 Y-28.5319
G01 X9.9234 Y-28.5082
G01 X9.9437 Y-28.4273
G01 X9.9491 Y-28.4034
G01 X9.9533 Y-28.3792
G01 X9.9671 Y-28.2845
G01 X9.9696 Y-28.2601
G01 X9.9703 Y-28.2478
G01 X9.9744 Y-28.1645
G01 X9.9750 Y-28.1400
G01 X9.9744 Y-28.1155
G01 X9.9703 Y-28.0322
G01 X9.9685 Y-28.0077
G01 X9.9655 Y-27.9833
G01 X9.9533 Y-27.9008
G01 X9.9491 Y-27.8766
G01 X9.9437 Y-27.8527
G01 X9.9234 Y-27.7718
G01 X9.9169 Y-27.7481
G01 X9.9092 Y-27.7248
G01 X9.8811 Y-27.6463
G01 X9.8768 Y-27.6348
G01 X9.8674 Y-27.6121
G01 X9.8266 Y-27.5255
G01 X9.8156 Y-27.5036
G01 X9.8035 Y-27.4823
G01 X9.7606 Y-27.4107
G01 X9.7475 Y-27.3900
G01 X9.7334 Y-27.3699
G01 X9.6837 Y-27.3029
G01 X9.6686 Y-27.2836
G01 X9.6525 Y-27.2650
G01 X9.5965 Y-27.2032
G01 X9.5796 Y-27.1854
G01 X9.5618 Y-27.1685
G01 X9.5000 Y-27.1125
G01 X9.4908 Y-27.1043
G01 X9.4719 Y-27.0888
G01 X9.3951 Y-27.0316
G01 X9.3750 Y-27.0175
G01 X9.3543 Y-27.0044
G01 X9.2827 Y-26.9615
G01 X9.2614 Y-26.9494
G01 X9.2395 Y-26.9384
G01 X9.1641 Y-26.9027
G01 X9.1529 Y-26.8976
G01 X9.1347 Y-26.8900
G01 X9.1529 Y-26.8824
G01 X9.1641 Y-26.8773
G01 X9.2395 Y-26.8416
G01 X9.2614 Y-26.8306
G01 X9.2827 Y-26.8185
G01 X9.3543 Y-26.7756
G01 X9.3750 Y-26.7625
G01 X9.3951 Y-26.7484
G01 X9.4621 Y-26.6987
G01 X9.4814 Y-26.6836
G01 X9.5000 Y-26.6675
G01 X9.5618 Y-26.6115
G01 X9.5796 Y-26.5946
G01 X9.5965 Y-26.5768
G01 X9.6525 Y-26.5150
G01 X9.6686 Y-26.4964
G01 X9.6837 Y-26.4771
G01 X9.7334 Y-26.4101
G01 X9.7475 Y-26.3900
G01 X9.7606 Y-26.3693
G01 X9.8035 Y-26.2977
G01 X9.8156 Y-26.2764
G01 X9.8266 Y-26.2545
G01 X9.8623 Y-26.1791
G01 X9.8722 Y-26.1566
G01 X9.8811 Y-26.1337
G01 X9.9092 Y-26.0552
G01 X9.9169 Y-26.0319
G01 X9.9234 Y-26.0082
G01 X9.9437 Y-25.9273
G01 X9.9491 Y-25.9034
G01 X9.9533 Y-25.8792
G01 X9.9671 Y-25.7845
G01 X9.9696 Y-25.7601
G01 X9.9703 Y-25.7478
G01 X9.9744 Y-25.6645
G01 X9.9750 Y-25.6400
G01 X9.9744 Y-25.6155
G01 X9.9703 Y-25.5322
G01 X9.9685 Y-25.5077
G01 X9.9655 Y-25.4833
G01 X9.9533 Y-25.4008
G01 X9.9491 Y-25.3766
G01 X9.9437 Y-25.3527
G01 X9.9234 Y-25.2718
G01 X9.9169 Y-25.2481
G01 X9.9092 Y-25.2248
G01 X9.8811 Y-25.1463
G01 X9.8722 Y-25.1234
G01 X9.8623 Y-25.1009
G01 X9.8266 Y-25.0255
G01 X9.8156 Y-25.0036
G01 X9.8035 Y-24.9823
G01 X9.7606 Y-24.9107
G01 X9.7475 Y-24.8900
G01 X9.7334 Y-24.8699
G01 X9.6837 Y-24.8029
G01 X9.6762 Y-24.7931
G01 X9.6607 Y-24.7742
G01 X9.5965 Y-24.7032
G01 X9.5796 Y-24.6854
G01 X9.5618 Y-24.6685
G01 X9.4908 Y-24.6043
G01 X9.4719 Y-24.5888
G01 X9.4621 Y-24.5813
G01 X9.3851 Y-24.5245
G01 X9.3647 Y-24.5108
G01 X9.3199 Y-24.4838
G01 X9.3471 Y-24.4798
G01 X9.3713 Y-24.4756
G01 X9.3833 Y-24.4730
G01 X9.4145 Y-24.4654
G01 X9.4451 Y-24.5216
G01 X9.4570 Y-24.5422
G01 X9.4634 Y-24.5523
G01 X9.4767 Y-24.5720
G01 X9.4910 Y-24.5911
G01 X9.5061 Y-24.6094
G01 X9.5221 Y-24.6270
G01 X9.6425 Y-24.7476
G01 X9.7503 Y-24.8881
G01 X9.8388 Y-25.0414
G01 X9.9066 Y-25.2050
G01 X9.9524 Y-25.3760
G01 X9.9755 Y-25.5515
G01 X9.9755 Y-25.7285
G01 X9.9524 Y-25.9040
G01 X9.9066 Y-26.0750
G01 X9.8388 Y-26.2386
G01 X9.7503 Y-26.3919
G01 X9.6596 Y-26.5101
G01 X9.6433 Y-26.5326
G01 X9.6245 Y-26.5616
G01 X9.6117 Y-26.5826
G01 X9.6000 Y-26.6042
G01 X9.5893 Y-26.6263
G01 X9.5798 Y-26.6490
G01 X9.5754 Y-26.6605
G01 X9.5675 Y-26.6838
G01 X9.5608 Y-26.7075
G01 X9.5553 Y-26.7314
G01 X9.5413 Y-26.7999
G01 X9.5369 Y-26.8243
G01 X9.5337 Y-26.8489
G01 X9.5326 Y-26.8613
G01 X9.5313 Y-26.8861
G01 X9.5311 Y-26.8985
G01 X9.5316 Y-26.9233
G01 X9.5334 Y-26.9481
G01 X9.5347 Y-26.9604
G01 X9.5383 Y-26.9850
G01 X9.5431 Y-27.0094
G01 X9.5460 Y-27.0215
G01 X9.5526 Y-27.0454
G01 X9.5604 Y-27.0690
G01 X9.5899 Y-27.1458
G01 X9.5990 Y-27.1678
G01 X9.6040 Y-27.1786
G01 X9.6092 Y-27.1893
G01 X9.6203 Y-27.2103
G01 X9.6325 Y-27.2308
G01 X9.6456 Y-27.2506
G01 X9.6596 Y-27.2699
G01 X9.7503 Y-27.3881
G01 X9.8388 Y-27.5414
G01 X9.9066 Y-27.7050
G01 X9.9524 Y-27.8760
G01 X9.9755 Y-28.0515
G01 X9.9755 Y-28.2285
G01 X9.9524 Y-28.4040
G01 X9.9066 Y-28.5750
G01 X9.8388 Y-28.7386
G01 X9.7503 Y-28.8919
G01 X9.6425 Y-29.0324
G01 X9.5174 Y-29.1575
G01 X9.3769 Y-29.2653
G01 X9.2236 Y-29.3538
G01 X9.0600 Y-29.4216
G01 X8.8890 Y-29.4674
G01 X8.7135 Y-29.4905
G01 X8.2865 Y-29.4905
G01 X8.1110 Y-29.4674
G01 X7.9400 Y-29.4216
G01 X7.7764 Y-29.3538
G01 X7.6231 Y-29.2653
G01 X7.4826 Y-29.1575
G01 X7.3575 Y-29.0324
G01 X7.2497 Y-28.8919
G01 X7.1612 Y-28.7386
G01 X7.0934 Y-28.5750
G01 X7.0476 Y-28.4040
G01 X7.0245 Y-28.2285
G01 X7.0245 Y-28.0515
G01 X7.0476 Y-27.8760
G01 X7.0934 Y-27.7050
G01 X7.1612 Y-27.5414
G01 X7.2206 Y-27.4382
G01 X7.2259 Y-27.4283
G01 X7.2358 Y-27.4082
G01 X7.2514 Y-27.3727
G01 X7.2608 Y-27.3497
G01 X7.2690 Y-27.3262
G01 X7.2727 Y-27.3144
G01 X7.2760 Y-27.3024
G01 X7.2819 Y-27.2783
G01 X7.2865 Y-27.2539
G01 X7.2884 Y-27.2416
G01 X7.2912 Y-27.2169
G01 X7.2922 Y-27.2045
G01 X7.2931 Y-27.1797
G01 X7.2941 Y-27.1099
G01 X7.2939 Y-27.0850
G01 X7.2924 Y-27.0602
G01 X7.2897 Y-27.0356
G01 X7.2857 Y-27.0110
G01 X7.2833 Y-26.9989
G01 X7.2775 Y-26.9747
G01 X7.2706 Y-26.9509
G01 X7.2625 Y-26.9274
G01 X7.2532 Y-26.9044
G01 X7.2428 Y-26.8818
G01 X7.2371 Y-26.8707
G01 X7.2312 Y-26.8598
G01 X7.2186 Y-26.8384
G01 X7.1750 Y-26.7687
G01 X7.1609 Y-26.7482
G01 X7.1457 Y-26.7286
G01 X7.1378 Y-26.7190
G01 X7.1212 Y-26.7005
G01 X7.1126 Y-26.6916
G01 X7.1037 Y-26.6829
G01 X7.0854 Y-26.6661
G01 X7.0663 Y-26.6503
G01 X7.0564 Y-26.6428
G01 X7.0464 Y-26.6355
G01 X7.0258 Y-26.6216
G01 X7.0152 Y-26.6151
G01 X6.9936 Y-26.6028
G01 X6.9714 Y-26.5916
G01 X6.8975 Y-26.5567
G01 X6.8755 Y-26.5475
G01 X6.8644 Y-26.5434
G01 X6.8418 Y-26.5358
G01 X6.8189 Y-26.5293
G01 X6.7958 Y-26.5239
G01 X6.7641 Y-26.5183
G01 X6.6293 Y-26.4745
G01 X6.5030 Y-26.4102
G01 X6.3884 Y-26.3269
G01 X5.4381 Y-25.3766
G01 X5.3548 Y-25.2620
G01 X5.2905 Y-25.1357
G01 X5.2467 Y-25.0009
G01 X5.2245 Y-24.8609
G01 X5.2245 Y-15.2841
G00 Z2.0000
G00 X7.0252 Y-23.7536
G01 F60.00
G01 Z-0.6000
G01 F120.00
G01 X7.0268 Y-23.7890
G01 X7.0286 Y-23.8135
G01 X7.0316 Y-23.8379
G01 X7.0372 Y-23.8743
G01 X7.0394 Y-23.8863
G01 X7.0420 Y-23.8983
G01 X7.0507 Y-23.9341
G01 X7.0573 Y-23.9577
G01 X7.0650 Y-23.9810
G01 X7.0775 Y-24.0156
G01 X7.0869 Y-24.0383
G01 X7.1079 Y-24.0827
G01 X7.1195 Y-24.1043
G01 X7.1383 Y-24.1359
G01 X7.1447 Y-24.1464
G01 X7.1583 Y-24.1668
G01 X7.1801 Y-24.1964
G01 X7.1952 Y-24.2158
G01 X7.2113 Y-24.2344
G01 X7.2361 Y-24.2615
G01 X7.2535 Y-24.2789
G01 X7.2898 Y-24.3119
G01 X7.3088 Y-24.3274
G01 X7.3383 Y-24.3495
G01 X7.3583 Y-24.3636
G01 X7.3791 Y-24.3767
G01 X7.4107 Y-24.3955
G01 X7.4215 Y-24.4014
G01 X7.4434 Y-24.4125
G01 X7.4767 Y-24.4281
G01 X7.4880 Y-24.4329
G01 X7.5109 Y-24.4417
G01 X7.5456 Y-24.4540
G01 X7.5691 Y-24.4611
G01 X7.6167 Y-24.4730
G01 X7.6407 Y-24.4778
G01 X7.6801 Y-24.4838
G01 X7.6353 Y-24.5108
G01 X7.6149 Y-24.5245
G01 X7.5379 Y-24.5813
G01 X7.5186 Y-24.5964
G01 X7.5000 Y-24.6125
G01 X7.4292 Y-24.6768
G01 X7.4118 Y-24.6942
G01 X7.3705 Y-24.7396
G01 X7.3477 Y-24.7396
G01 X7.0252 Y-24.4171
G01 X7.0252 Y-23.7536
G00 Z2.0000
G00 X7.0554 Y-23.9511
G01 F60.00
G01 Z-0.6000
G01 F120.00
G01 X7.0423 Y-23.9543
G01 X7.0252 Y-23.9597
G00 Z2.0000
G00 X7.3883 Y-24.3823
G01 F60.00
G01 Z-0.6000
G01 F120.00
G01 X7.3797 Y-24.3977
G01 X7.3676 Y-24.4162
G01 X7.3543 Y-24.4338
G01 X7.3446 Y-24.4449
G01 X7.3345 Y-24.4556
G01 X7.3183 Y-24.4706
G01 X7.3011 Y-24.4844
G01 X7.2890 Y-24.4929
G01 X7.2702 Y-24.5045
G01 X7.2572 Y-24.5114
G01 X7.2439 Y-24.5177
G01 X7.2234 Y-24.5259
G01 X7.2024 Y-24.5326
G01 X7.1881 Y-24.5362
G01 X7.1664 Y-24.5402
G01 X7.1502 Y-24.5422
G00 Z2.0000
G00 X0.8805 Y-29.2556
G01 F60.00
G01 Z-0.6000
G01 F120.00
G01 X0.8805 Y-50.4555
G01 X0.8811 Y-50.4793
G01 X0.8828 Y-50.5030
G01 X0.8856 Y-50.5267
G01 X0.8895 Y-50.5501
G01 X0.9059 Y-50.6255
G01 X0.9125 Y-50.6496
G01 X0.9202 Y-50.6734
G01 X0.9291 Y-50.6967
G01 X0.9391 Y-50.7196
G01 X0.9503 Y-50.7419
G01 X0.9626 Y-50.7637
G01 X0.9760 Y-50.7848
G01 X0.9830 Y-50.7951
G01 X0.9979 Y-50.8152
G01 X1.0138 Y-50.8344
G01 X0.9303 Y-50.7380
G01 X0.8805 Y-50.5093
G01 X0.8805 Y-29.2556
G00 Z2.0000
G00 X0.8805 Y-29.6838
G01 F60.00
G01 Z-0.6000
G01 F120.00
G01 X0.8805 Y-29.6838
G00 Z2.0000
G00 X0.8805 Y-30.2838
G01 F60.00
G01 Z-0.6000
G01 F120.00
G01 X0.8805 Y-30.2838
G00 Z2.0000
G00 X0.8805 Y-30.8838
G01 F60.00
G01 Z-0.6000
G01 F120.00
G01 X0.8805 Y-30.8838
G00 Z2.0000
G00 X0.8805 Y-31.4838
G01 F60.00
G01 Z-0.6000
G01 F120.00
G01 X0.8805 Y-31.4838
G00 Z2.0000
G00 X0.8805 Y-32.0838
G01 F60.00
G01 Z-0.6000
G01 F120.00
G01 X0.8805 Y-32.0838
G00 Z2.0000
G00 X0.8805 Y-32.6838
G01 F60.00
G01 Z-0.6000
G01 F120.00
G01 X0.8805 Y-32.6838
G00 Z2.0000
G00 X0.8805 Y-33.2838
G01 F60.00
G01 Z-0.6000
G01 F120.00
G01 X0.8805 Y-33.2838
G00 Z2.0000
G00 X0.8805 Y-33.8838
G01 F60.00
G01 Z-0.6000
G01 F120.00
G01 X0.8805 Y-33.8838
G00 Z2.0000
G00 X0.8805 Y-34.4838
G01 F60.00
G01 Z-0.6000
G01 F120.00
G01 X0.8805 Y-34.4838
G00 Z2.0000
G00 X0.8805 Y-35.0838
G01 F60.00
G01 Z-0.6000
G01 F120.00
G01 X0.8805 Y-35.0838
G00 Z2.0000
G00 X0.8805 Y-35.6838
G01 F60.00
G01 Z-0.6000
G01 F120.00
G01 X0.8805 Y-35.6838
G00 Z2.0000
G00 X0.8805 Y-36.2838
G01 F60.00
G01 Z-0.6000
G01 F120.00
G01 X0.8805 Y-36.2838
G00 Z2.0000
G00 X0.8805 Y-36.8838
G01 F60.00
G01 Z-0.6000
G01 F120.00
G01 X0.8805 Y-36.8838
G00 Z2.0000
G00 X0.8805 Y-37.4838
G01 F60.00
G01 Z-0.6000
G01 F120.00
G01 X0.8805 Y-37.4838
G00 Z2.0000
G00 X0.8805 Y-38.0838
G01 F60.00
G01 Z-0.6000
G01 F120.00
G01 X0.8805 Y-38.0838
G00 Z2.0000
G00 X0.8805 Y-38.6838
G01 F60.00
G01 Z-0.6000
G01 F120.00
G01 X0.8805 Y-38.6838
G00 Z2.0000
G00 X0.8805 Y-39.2838
G01 F60.00
G01 Z-0.6000
G01 F120.00
G01 X0.8805 Y-39.2838
G00 Z2.0000
G00 X0.8805 Y-39.8838
G01 F60.00
G01 Z-0.6000
G01 F120.00
G01 X0.8805 Y-39.8838
G00 Z2.0000
G00 X0.8805 Y-40.4841
G01 F60.00
G01 Z-0.6000
G01 F120.00
G01 X0.8805 Y-40.4841
G00 Z2.0000
G00 X0.8805 Y-41.0845
G01 F60.00
G01 Z-0.6000
G01 F120.00
G01 X0.8805 Y-41.0845
G00 Z2.0000
G00 X0.8805 Y-41.6849
G01 F60.00
G01 Z-0.6000
G01 F120.00
G01 X0.8805 Y-41.6849
G00 Z2.0000
G00 X0.8805 Y-42.2852
G01 F60.00
G01 Z-0.6000
G01 F120.00
G01 X0.8805 Y-42.2852
G00 Z2.0000
G00 X0.8805 Y-42.8856
G01 F60.00
G01 Z-0.6000
G01 F120.00
G01 X0.8805 Y-42.8856
G00 Z2.0000
G00 X0.8805 Y-43.4860
G01 F60.00
G01 Z-0.6000
G01 F120.00
G01 X0.8805 Y-43.4860
G00 Z2.0000
G00 X0.8805 Y-44.0863
G01 F60.00
G01 Z-0.6000
G01 F120.00
G01 X0.8805 Y-44.0863
G00 Z2.0000
G00 X0.8805 Y-44.6867
G01 F60.00
G01 Z-0.6000
G01 F120.00
G01 X0.8805 Y-44.6867
G00 Z2.0000
G00 X0.8805 Y-45.2870
G01 F60.00
G01 Z-0.6000
G01 F120.00
G01 X0.8805 Y-45.2870
G00 Z2.0000
G00 X0.8805 Y-45.8880
G01 F60.00
G01 Z-0.6000
G01 F120.00
G01 X0.8805 Y-45.8880
G00 Z2.0000
G00 X0.8805 Y-46.4890
G01 F60.00
G01 Z-0.6000
G01 F120.00
G01 X0.8805 Y-46.4890
G00 Z2.0000
G00 X0.8805 Y-47.0901
G01 F60.00
G01 Z-0.6000
G01 F120.00
G01 X0.8805 Y-47.0901
G00 Z2.0000
G00 X0.8805 Y-47.6920
G01 F60.00
G01 Z-0.6000
G01 F120.00
G01 X0.8805 Y-47.6920
G00 Z2.0000
G00 X0.8805 Y-48.2944
G01 F60.00
G01 Z-0.6000
G01 F120.00
G01 X0.8805 Y-48.2944
G00 Z2.0000
G00 X0.8805 Y-48.8984
G01 F60.00
G01 Z-0.6000
G01 F120.00
G01 X0.8805 Y-48.8984
G00 Z2.0000
G00 X0.8805 Y-49.5056
G01 F60.00
G01 Z-0.6000
G01 F120.00
G01 X0.8805 Y-49.5056
G00 Z2.0000
G00 X0.8805 Y-50.1230
G01 F60.00
G01 Z-0.6000
G01 F120.00
G01 X0.8805 Y-50.1230
G00 Z2.0000
G00 X0.9570 Y-50.7540
G01 F60.00
G01 Z-0.6000
G01 F120.00
G01 X0.9497 Y-50.7605
G00 Z2.0000
G00 X1.0596 Y-50.8872
G01 F60.00
G01 Z-0.6000
G01 F120.00
G01 X1.0763 Y-50.9056
G01 X1.0850 Y-50.9145
G01 X1.1030 Y-50.9315
G01 X1.1219 Y-50.9477
G01 X1.1416 Y-50.9629
G01 X1.1619 Y-50.9771
G01 X1.1724 Y-50.9838
G01 X1.1938 Y-50.9964
G01 X1.2157 Y-51.0080
G01 X1.2383 Y-51.0184
G01 X1.2613 Y-51.0277
G01 X1.2847 Y-51.0359
G01 X1.3636 Y-51.0592
G01 X1.3751 Y-51.0625
G01 X1.3982 Y-51.0681
G01 X1.4216 Y-51.0726
G01 X1.4451 Y-51.0760
G01 X1.4688 Y-51.0782
G01 X1.4807 Y-51.0789
G01 X1.5045 Y-51.0795
G01 X1.4326 Y-51.0795
G01 X1.1557 Y-50.9982
G01 X1.0596 Y-50.8872
G00 Z2.0000
G00 X1.4384 Y-51.0751
G01 F60.00
G01 Z-0.6000
G01 F120.00
G01 X1.4369 Y-51.0795
G00 Z2.0000
G00 X26.4098 Y-41.3313
G01 F60.00
G01 Z-0.6000
G01 F120.00
G01 X26.4095 Y-41.3308
G01 X26.4098 Y-40.2536
G01 X26.4095 Y-40.2531
G01 X26.4098 Y-39.1379
G01 X26.4095 Y-39.1374
G01 X26.4098 Y-37.9774
G01 X26.4095 Y-37.9768
G01 X26.4098 Y-36.7638
G01 X26.4095 Y-36.7633
G01 X26.4098 Y-35.4876
G01 X26.4095 Y-35.4870
G00 Z2.0000
G00 X28.2102 Y-40.7710
G01 F60.00
G01 Z-0.6000
G01 F120.00
G01 X28.2105 Y-40.7714
G00 Z2.0000
G00 X28.4507 Y-40.0640
G01 F60.00
G01 Z-0.6000
G01 F120.00
G01 X28.2102 Y-39.7135
G01 X29.0631 Y-39.8962
G01 X29.1418 Y-40.0108
G00 Z2.0000
G00 X30.0478 Y-41.2408
G01 F60.00
G01 Z-0.6000
G01 F120.00
G01 X30.0506 Y-41.2445
G00 Z2.0000
G00 X30.7390 Y-42.1184
G01 F60.00
G01 Z-0.6000
G01 F120.00
G01 X30.7427 Y-42.1230
G00 Z2.0000
G00 X31.6232 Y-42.2441
G01 F60.00
G01 Z-0.6000
G01 F120.00
G01 X31.6256 Y-42.2470
G00 Z2.0000
G00 X32.1890 Y-41.9847
G01 F60.00
G01 Z-0.6000
G01 F120.00
G01 X32.2247 Y-42.0271
G00 Z2.0000
G00 X33.2335 Y-42.2700
G01 F60.00
G01 Z-0.6000
G01 F120.00
G01 X33.2339 Y-42.2705
G01 X34.0438 Y-42.2700
G01 X34.0442 Y-42.2705
G00 Z2.0000
G00 X34.8527 Y-42.2593
G01 F60.00
G01 Z-0.6000
G01 F120.00
G01 X34.8541 Y-42.2608
G00 Z2.0000
G00 X35.2505 Y-41.8060
G01 F60.00
G01 Z-0.6000
G01 F120.00
G01 X35.2488 Y-41.8042
G00 Z2.0000
G00 X35.2505 Y-40.9245
G01 F60.00
G01 Z-0.6000
G01 F120.00
G01 X35.2500 Y-40.9240
G00 Z2.0000
G00 X35.2494 Y-40.0212
G01 F60.00
G01 Z-0.6000
G01 F120.00
G01 X35.2474 Y-40.0190
G00 Z2.0000
G00 X34.8751 Y-39.5859
G01 F60.00
G01 Z-0.6000
G01 F120.00
G01 X34.8743 Y-39.5850
G00 Z2.0000
G00 X34.0785 Y-39.5700
G01 F60.00
G01 Z-0.6000
G01 F120.00
G01 X34.0781 Y-39.5695
G01 X33.3101 Y-39.5700
G01 X33.3097 Y-39.5695
G00 Z2.0000
G00 X32.6761 Y-39.7381
G01 F60.00
G01 Z-0.6000
G01 F120.00
G01 X32.6684 Y-39.7284
G00 Z2.0000
G00 X31.8675 Y-39.6691
G01 F60.00
G01 Z-0.6000
G01 F120.00
G01 X31.8667 Y-39.6681
G00 Z2.0000
G00 X31.1136 Y-39.4000
G01 F60.00
G01 Z-0.6000
G01 F120.00
G01 X31.1401 Y-39.4244
G01 X31.1595 Y-39.4405
G01 X31.1695 Y-39.4482
G01 X31.1900 Y-39.4628
G01 X31.2112 Y-39.4763
G01 X31.2331 Y-39.4888
G01 X31.2555 Y-39.5001
G01 X31.3309 Y-39.5336
G01 X31.3529 Y-39.5427
G01 X31.3640 Y-39.5468
G01 X31.3866 Y-39.5544
G01 X31.3980 Y-39.5577
G01 X31.4211 Y-39.5636
G01 X31.4444 Y-39.5684
G01 X31.4679 Y-39.5721
G01 X31.6240 Y-39.5926
G01 X31.7950 Y-39.6384
G01 X31.9586 Y-39.7062
G01 X32.0224 Y-39.7430
G01 X32.0546 Y-39.7604
G01 X32.0767 Y-39.7708
G01 X32.0880 Y-39.7757
G01 X32.1108 Y-39.7845
G01 X32.1224 Y-39.7885
G01 X32.1458 Y-39.7956
G01 X32.1695 Y-39.8016
G01 X32.1815 Y-39.8041
G01 X32.2746 Y-39.8203
G01 X32.2993 Y-39.8234
G01 X32.3116 Y-39.8245
G01 X32.3364 Y-39.8257
G01 X32.3489 Y-39.8258
G01 X32.3737 Y-39.8252
G01 X32.3984 Y-39.8233
G01 X32.4231 Y-39.8202
G01 X32.4475 Y-39.8159
G01 X32.4717 Y-39.8103
G01 X32.4957 Y-39.8036
G01 X32.5192 Y-39.7957
G01 X32.5423 Y-39.7866
G01 X32.6176 Y-39.7548
G01 X32.6391 Y-39.7445
G01 X32.6600 Y-39.7332
G01 X32.6703 Y-39.7272
G01 X32.6904 Y-39.7145
G01 X32.7099 Y-39.7008
G01 X32.7287 Y-39.6862
G01 X32.7732 Y-39.6499
G01 X32.8634 Y-39.6028
G01 X32.9643 Y-39.5739
G01 X33.0141 Y-39.5695
G01 X34.7859 Y-39.5695
G01 X34.8357 Y-39.5739
G01 X34.9366 Y-39.6028
G01 X35.0268 Y-39.6499
G01 X35.1057 Y-39.7143
G01 X35.1701 Y-39.7932
G01 X35.2172 Y-39.8834
G01 X35.2461 Y-39.9843
G01 X35.2505 Y-40.0341
G01 X35.2505 Y-41.8059
G01 X35.2461 Y-41.8557
G01 X35.2172 Y-41.9566
G01 X35.1701 Y-42.0468
G01 X35.1057 Y-42.1257
G01 X35.0268 Y-42.1901
G01 X34.9366 Y-42.2372
G01 X34.8357 Y-42.2661
G01 X34.7859 Y-42.2705
G01 X33.0141 Y-42.2705
G01 X32.9643 Y-42.2661
G01 X32.8634 Y-42.2372
G01 X32.7732 Y-42.1901
G01 X32.7287 Y-42.1538
G01 X32.7094 Y-42.1388
G01 X32.6896 Y-42.1244
G01 X32.6691 Y-42.1111
G01 X32.6480 Y-42.0987
G01 X32.6263 Y-42.0874
G01 X32.6152 Y-42.0821
G01 X32.5927 Y-42.0725
G01 X32.5698 Y-42.0639
G01 X32.4920 Y-42.0371
G01 X32.4801 Y-42.0335
G01 X32.4561 Y-42.0272
G01 X32.4318 Y-42.0220
G01 X32.4196 Y-42.0199
G01 X32.3950 Y-42.0166
G01 X32.3702 Y-42.0145
G01 X32.3454 Y-42.0136
G01 X32.3206 Y-42.0139
G01 X32.2958 Y-42.0155
G01 X32.2711 Y-42.0183
G01 X32.2466 Y-42.0224
G01 X32.2224 Y-42.0276
G01 X32.1545 Y-42.0441
G01 X32.1429 Y-42.0471
G01 X32.1201 Y-42.0538
G01 X32.0976 Y-42.0615
G01 X32.0865 Y-42.0658
G01 X32.0755 Y-42.0704
G01 X32.0539 Y-42.0803
G01 X32.0327 Y-42.0912
G01 X32.0224 Y-42.0970
G01 X31.9586 Y-42.1338
G01 X31.7950 Y-42.2016
G01 X31.6240 Y-42.2474
G01 X31.4485 Y-42.2705
G01 X31.2715 Y-42.2705
G01 X31.0960 Y-42.2474
G01 X30.9250 Y-42.2016
G01 X30.7614 Y-42.1338
G01 X30.6081 Y-42.0453
G01 X30.4676 Y-41.9375
G01 X30.3425 Y-41.8124
G01 X30.2347 Y-41.6719
G01 X30.1462 Y-41.5186
G01 X30.0784 Y-41.3550
G01 X30.0326 Y-41.1840
G01 X30.0106 Y-41.0176
G01 X30.0071 Y-40.9971
G01 X30.0022 Y-40.9725
G01 X29.9992 Y-40.9602
G01 X29.9925 Y-40.9360
G01 X29.9886 Y-40.9240
G01 X29.9800 Y-40.9004
G01 X29.9753 Y-40.8887
G01 X29.9649 Y-40.8658
G01 X29.9534 Y-40.8434
G01 X29.9199 Y-40.7821
G01 X29.9141 Y-40.7717
G01 X29.9017 Y-40.7514
G01 X29.8884 Y-40.7316
G01 X29.8741 Y-40.7126
G01 X29.8589 Y-40.6942
G01 X29.8429 Y-40.6766
G01 X29.2757 Y-40.1092
G01 X29.2629 Y-40.0969
G01 X29.2473 Y-40.0825
G01 X29.2284 Y-40.0666
G01 X29.2087 Y-40.0516
G01 X29.1986 Y-40.0445
G01 X29.1779 Y-40.0310
G01 X29.1673 Y-40.0247
G01 X29.1456 Y-40.0128
G01 X29.1346 Y-40.0072
G01 X29.0599 Y-39.9729
G01 X29.0485 Y-39.9679
G01 X29.0254 Y-39.9587
G01 X29.0019 Y-39.9507
G01 X28.9900 Y-39.9471
G01 X28.9660 Y-39.9409
G01 X28.9417 Y-39.9358
G01 X28.9172 Y-39.9320
G01 X28.9048 Y-39.9305
G01 X28.8925 Y-39.9294
G01 X28.8677 Y-39.9280
G01 X28.8428 Y-39.9278
G01 X28.8304 Y-39.9282
G01 X28.8056 Y-39.9299
G01 X28.7933 Y-39.9312
G01 X28.7118 Y-39.9428
G01 X28.6996 Y-39.9447
G01 X28.6752 Y-39.9494
G01 X28.6511 Y-39.9554
G01 X28.6273 Y-39.9625
G01 X28.6039 Y-39.9708
G01 X28.5809 Y-39.9803
G01 X28.5585 Y-39.9909
G01 X28.5475 Y-39.9966
G01 X28.5259 Y-40.0089
G01 X28.5153 Y-40.0154
G01 X28.4946 Y-40.0292
G01 X28.4747 Y-40.0440
G01 X28.4556 Y-40.0598
G01 X28.4028 Y-40.1056
G01 X28.3844 Y-40.1223
G01 X28.3755 Y-40.1310
G01 X28.3585 Y-40.1490
G01 X28.3503 Y-40.1584
G01 X28.3346 Y-40.1776
G01 X28.3271 Y-40.1875
G01 X28.3129 Y-40.2079
G01 X28.2998 Y-40.2290
G01 X28.2936 Y-40.2397
G01 X28.2820 Y-40.2617
G01 X28.2716 Y-40.2842
G01 X28.2623 Y-40.3072
G01 X28.2541 Y-40.3307
G01 X28.2308 Y-40.4096
G01 X28.2275 Y-40.4211
G01 X28.2219 Y-40.4442
G01 X28.2174 Y-40.4676
G01 X28.2140 Y-40.4911
G01 X28.2118 Y-40.5148
G01 X28.2106 Y-40.5386
G01 X28.2107 Y-41.3319
G01 X28.2121 Y-41.3587
G01 X28.2162 Y-41.3983
G01 X28.2194 Y-41.4227
G01 X28.2238 Y-41.4468
G01 X28.2294 Y-41.4707
G01 X28.2327 Y-41.4825
G01 X28.2400 Y-41.5060
G01 X28.2485 Y-41.5290
G01 X28.2581 Y-41.5516
G01 X28.2687 Y-41.5737
G01 X28.2745 Y-41.5845
G01 X28.3138 Y-41.6562
G01 X28.3262 Y-41.6765
G01 X28.3395 Y-41.6962
G01 X28.3538 Y-41.7153
G01 X28.3689 Y-41.7336
G01 X28.3850 Y-41.7513
G01 X30.1595 Y-43.5260
G01 X28.2102 Y-41.5771
G01 X28.2102 Y-38.6890
G01 X28.2123 Y-38.7338
G01 X28.2141 Y-38.7582
G01 X28.2171 Y-38.7826
G01 X28.2229 Y-38.8214
G01 X28.2271 Y-38.8456
G01 X28.2325 Y-38.8696
G01 X28.2420 Y-38.9077
G01 X28.2486 Y-38.9313
G01 X28.2563 Y-38.9546
G01 X28.2695 Y-38.9916
G01 X28.2783 Y-39.0145
G01 X28.2883 Y-39.0369
G01 X28.3104 Y-39.0835
G01 X28.3220 Y-39.1051
G01 X28.3484 Y-39.1494
G01 X28.3615 Y-39.1701
G01 X28.3756 Y-39.1902
G01 X28.3990 Y-39.2217
G01 X28.4141 Y-39.2411
G01 X28.4302 Y-39.2597
G01 X28.4565 Y-39.2888
G01 X28.4735 Y-39.3065
G01 X30.0130 Y-40.8461
G01 X30.0102 Y-40.9077
G01 X30.0102 Y-40.9323
G01 X30.0147 Y-41.0278
G01 X30.0165 Y-41.0523
G01 X30.0179 Y-41.0645
G01 X30.0317 Y-41.1592
G01 X30.0359 Y-41.1834
G01 X30.0413 Y-41.2073
G01 X30.0616 Y-41.2882
G01 X30.0681 Y-41.3119
G01 X30.0758 Y-41.3352
G01 X30.1039 Y-41.4137
G01 X30.1128 Y-41.4366
G01 X30.1227 Y-41.4591
G01 X30.1584 Y-41.5345
G01 X30.1694 Y-41.5564
G01 X30.1815 Y-41.5777
G01 X30.2244 Y-41.6493
G01 X30.2375 Y-41.6700
G01 X30.2516 Y-41.6901
G01 X30.3013 Y-41.7571
G01 X30.3164 Y-41.7764
G01 X30.3325 Y-41.7950
G01 X30.3885 Y-41.8568
G01 X30.4054 Y-41.8746
G01 X30.4232 Y-41.8915
G01 X30.4850 Y-41.9475
G01 X30.5036 Y-41.9636
G01 X30.5131 Y-41.9712
G01 X30.5899 Y-42.0284
G01 X30.6100 Y-42.0425
G01 X30.6307 Y-42.0556
G01 X30.7023 Y-42.0985
G01 X30.7236 Y-42.1106
G01 X30.7345 Y-42.1162
G01 X30.8321 Y-42.1624
G01 X30.8434 Y-42.1672
G01 X30.8663 Y-42.1761
G01 X30.9448 Y-42.2042
G01 X30.9681 Y-42.2119
G01 X30.9918 Y-42.2184
G01 X31.0727 Y-42.2387
G01 X31.0966 Y-42.2441
G01 X31.1208 Y-42.2483
G01 X31.2033 Y-42.2605
G01 X31.2277 Y-42.2635
G01 X31.2522 Y-42.2653
G01 X31.3355 Y-42.2694
G01 X31.3600 Y-42.2700
G01 X31.3845 Y-42.2694
G01 X31.4678 Y-42.2653
G01 X31.4923 Y-42.2635
G01 X31.5167 Y-42.2605
G01 X31.5992 Y-42.2483
G01 X31.6234 Y-42.2441
G01 X31.6473 Y-42.2387
G01 X31.7282 Y-42.2184
G01 X31.7519 Y-42.2119
G01 X31.7752 Y-42.2042
G01 X31.8537 Y-42.1761
G01 X31.8766 Y-42.1672
G01 X31.8991 Y-42.1573
G01 X31.9745 Y-42.1216
G01 X31.9855 Y-42.1162
G01 X32.0071 Y-42.1047
G01 X32.0893 Y-42.0556
G01 X32.1100 Y-42.0425
G01 X32.1301 Y-42.0284
G01 X32.2069 Y-41.9712
G01 X32.2164 Y-41.9636
G01 X32.2350 Y-41.9475
G01 X32.3058 Y-41.8832
G01 X32.3232 Y-41.8658
G01 X32.3644 Y-41.8206
G01 X32.5526 Y-41.8205
G01 X32.5554 Y-41.8434
G01 X32.5596 Y-41.8675
G01 X32.5650 Y-41.8915
G01 X32.5681 Y-41.9034
G01 X32.5752 Y-41.9268
G01 X32.5792 Y-41.9384
G01 X32.5881 Y-41.9613
G01 X32.5929 Y-41.9726
G01 X32.6034 Y-41.9948
G01 X32.6150 Y-42.0164
G01 X32.6211 Y-42.0271
G01 X32.6343 Y-42.0478
G01 X32.6484 Y-42.0678
G01 X32.6558 Y-42.0776
G01 X32.6714 Y-42.0966
G01 X32.6795 Y-42.1058
G01 X32.6964 Y-42.1236
G01 X32.7142 Y-42.1405
G01 X32.7328 Y-42.1565
G01 X32.7424 Y-42.1642
G01 X32.7522 Y-42.1716
G01 X32.7722 Y-42.1857
G01 X32.7825 Y-42.1924
G01 X32.8036 Y-42.2050
G01 X32.8252 Y-42.2166
G01 X32.8474 Y-42.2271
G01 X32.8587 Y-42.2319
G01 X32.8816 Y-42.2408
G01 X32.9049 Y-42.2485
G01 X32.9166 Y-42.2519
G01 X32.9404 Y-42.2579
G01 X32.9525 Y-42.2604
G01 X32.9766 Y-42.2646
G01 X33.0010 Y-42.2676
G01 X33.0255 Y-42.2694
G01 X33.0500 Y-42.2700
G01 X34.7500 Y-42.2700
G01 X34.7623 Y-42.2698
G01 X34.7868 Y-42.2686
G01 X34.7990 Y-42.2676
G01 X34.8234 Y-42.2646
G01 X34.8475 Y-42.2604
G01 X34.8715 Y-42.2550
G01 X34.8834 Y-42.2519
G01 X34.9068 Y-42.2448
G01 X34.9299 Y-42.2365
G01 X34.9413 Y-42.2319
G01 X34.9638 Y-42.2220
G01 X34.9748 Y-42.2166
G01 X34.9857 Y-42.2110
G01 X35.0071 Y-42.1989
G01 X35.0175 Y-42.1924
G01 X35.0379 Y-42.1788
G01 X35.0576 Y-42.1642
G01 X35.0766 Y-42.1486
G01 X35.0948 Y-42.1321
G01 X35.1121 Y-42.1148
G01 X35.1286 Y-42.0966
G01 X35.1365 Y-42.0872
G01 X35.1516 Y-42.0678
G01 X35.1588 Y-42.0579
G01 X35.1657 Y-42.0478
G01 X35.1789 Y-42.0271
G01 X35.1850 Y-42.0164
G01 X35.1966 Y-41.9948
G01 X35.2071 Y-41.9726
G01 X35.2119 Y-41.9613
G01 X35.2165 Y-41.9499
G01 X35.2248 Y-41.9268
G01 X35.2319 Y-41.9034
G01 X35.2379 Y-41.8796
G01 X35.2426 Y-41.8555
G01 X35.2446 Y-41.8434
G01 X35.2476 Y-41.8190
G01 X35.2494 Y-41.7945
G01 X35.2500 Y-41.7700
G01 X35.2500 Y-40.0700
G01 X35.2494 Y-40.0455
G01 X35.2476 Y-40.0210
G01 X35.2446 Y-39.9966
G01 X35.2404 Y-39.9725
G01 X35.2379 Y-39.9604
G01 X35.2319 Y-39.9366
G01 X35.2248 Y-39.9132
G01 X35.2208 Y-39.9016
G01 X35.2119 Y-39.8787
G01 X35.2020 Y-39.8562
G01 X35.1910 Y-39.8343
G01 X35.1789 Y-39.8129
G01 X35.1724 Y-39.8025
G01 X35.1588 Y-39.7821
G01 X35.1442 Y-39.7624
G01 X35.1365 Y-39.7528
G01 X35.1205 Y-39.7342
G01 X35.1121 Y-39.7252
G01 X35.0948 Y-39.7079
G01 X35.0766 Y-39.6914
G01 X35.0576 Y-39.6758
G01 X35.0478 Y-39.6684
G01 X35.0278 Y-39.6543
G01 X35.0071 Y-39.6411
G01 X34.9964 Y-39.6350
G01 X34.9748 Y-39.6234
G01 X34.9526 Y-39.6129
G01 X34.9299 Y-39.6035
G01 X34.9184 Y-39.5992
G01 X34.9068 Y-39.5952
G01 X34.8834 Y-39.5881
G01 X34.8596 Y-39.5821
G01 X34.8355 Y-39.5774
G01 X34.8234 Y-39.5754
G01 X34.7990 Y-39.5724
G01 X34.7745 Y-39.5706
G01 X34.7623 Y-39.5702
G01 X33.0500 Y-39.5700
G01 X33.0377 Y-39.5702
G01 X33.0132 Y-39.5714
G01 X32.9888 Y-39.5738
G01 X32.9766 Y-39.5754
G01 X32.9525 Y-39.5796
G01 X32.9285 Y-39.5850
G01 X32.9166 Y-39.5881
G01 X32.8932 Y-39.5952
G01 X32.8701 Y-39.6035
G01 X32.8587 Y-39.6081
G01 X32.8362 Y-39.6180
G01 X32.8143 Y-39.6290
G01 X32.7929 Y-39.6411
G01 X32.7825 Y-39.6476
G01 X32.7722 Y-39.6543
G01 X32.7522 Y-39.6684
G01 X32.7328 Y-39.6835
G01 X32.7142 Y-39.6995
G01 X32.7052 Y-39.7079
G01 X32.6879 Y-39.7252
G01 X32.6795 Y-39.7342
G01 X32.6635 Y-39.7528
G01 X32.6484 Y-39.7722
G01 X32.6343 Y-39.7922
G01 X32.6211 Y-39.8129
G01 X32.6150 Y-39.8236
G01 X32.6034 Y-39.8452
G01 X32.5980 Y-39.8562
G01 X32.5929 Y-39.8674
G01 X32.5835 Y-39.8901
G01 X32.5752 Y-39.9132
G01 X32.5681 Y-39.9366
G01 X32.5650 Y-39.9485
G01 X32.5596 Y-39.9725
G01 X32.5554 Y-39.9966
G01 X32.5525 Y-40.0198
G01 X32.3647 Y-40.0198
G01 X32.3232 Y-39.9742
G01 X32.3058 Y-39.9568
G01 X32.2350 Y-39.8925
G01 X32.2164 Y-39.8764
G01 X32.2069 Y-39.8688
G01 X32.1301 Y-39.8116
G01 X32.1100 Y-39.7975
G01 X32.0893 Y-39.7844
G01 X32.0177 Y-39.7415
G01 X32.0071 Y-39.7353
G01 X31.9855 Y-39.7238
G01 X31.8879 Y-39.6776
G01 X31.8766 Y-39.6728
G01 X31.8537 Y-39.6639
G01 X31.7752 Y-39.6358
G01 X31.7519 Y-39.6281
G01 X31.7282 Y-39.6216
G01 X31.6354 Y-39.5985
G01 X31.6234 Y-39.5959
G01 X31.5992 Y-39.5917
G01 X31.5167 Y-39.5795
G01 X31.5045 Y-39.5779
G01 X31.4801 Y-39.5754
G01 X31.3723 Y-39.5702
G01 X31.3477 Y-39.5702
G01 X31.2867 Y-39.5730
G01 X31.1136 Y-39.4000
G00 Z2.0000
G00 X30.4511 Y-38.7378
G01 F60.00
G01 Z-0.6000
G01 F120.00
G01 X30.4507 Y-38.7372
G00 Z2.0000
G00 X30.0133 Y-38.0913
G01 F60.00
G01 Z-0.6000
G01 F120.00
G01 X30.0102 Y-38.0866
G00 Z2.0000
G00 X30.1821 Y-37.2507
G01 F60.00
G01 Z-0.6000
G01 F120.00
G01 X30.1390 Y-37.1844
G01 X30.0102 Y-36.9753
G01 X30.7692 Y-37.0528
G01 X30.7809 Y-37.0708
G00 Z2.0000
G00 X31.5635 Y-37.1736
G01 F60.00
G01 Z-0.6000
G01 F120.00
G01 X31.5645 Y-37.1752
G00 Z2.0000
G00 X32.1325 Y-36.9466
G01 F60.00
G01 Z-0.6000
G01 F120.00
G01 X32.1460 Y-36.9663
G00 Z2.0000
G00 X33.0267 Y-37.1894
G01 F60.00
G01 Z-0.6000
G01 F120.00
G01 X33.0275 Y-37.1905
G01 X33.7648 Y-37.1900
G01 X33.7652 Y-37.1905
G01 X34.5051 Y-37.1900
G01 X34.5055 Y-37.1905
G00 Z2.0000
G00 X35.1274 Y-37.0179
G01 F60.00
G01 Z-0.6000
G01 F120.00
G01 X35.1279 Y-37.0186
G00 Z2.0000
G00 X35.2505 Y-36.1729
G01 F60.00
G01 Z-0.6000
G01 F120.00
G01 X35.2500 Y-36.1723
G00 Z2.0000
G00 X35.5088 Y-35.5047
G01 F60.00
G01 Z-0.6000
G01 F120.00
G01 X35.5086 Y-35.5045
G01 X35.9403 Y-35.0732
G01 X35.9401 Y-35.0729
G01 X36.3718 Y-34.6417
G01 X36.3717 Y-34.6414
G01 X36.8033 Y-34.2102
G01 X36.8032 Y-34.2099
G01 X37.2349 Y-33.7786
G01 X37.2347 Y-33.7784
G01 X37.6664 Y-33.3471
G01 X37.6662 Y-33.3469
G01 X38.0980 Y-32.9155
G01 X38.0978 Y-32.9153
G01 X38.5316 Y-32.4819
G01 X38.5314 Y-32.4816
G00 Z2.0000
G00 X38.9939 Y-32.0923
G01 F60.00
G01 Z-0.6000
G01 F120.00
G01 X38.9728 Y-32.0599
G00 Z2.0000
G00 X39.5898 Y-31.9081
G01 F60.00
G01 Z-0.6000
G01 F120.00
G01 X39.5905 Y-31.9092
G00 Z2.0000
G00 X40.1083 Y-31.6039
G01 F60.00
G01 Z-0.6000
G01 F120.00
G01 X40.0956 Y-31.5854
G01 X40.0440 Y-31.5061
G00 Z2.0000
G00 X40.4907 Y-29.9672
G01 F60.00
G01 Z-0.6000
G01 F120.00
G01 X40.2013 Y-29.4709
G01 X40.1954 Y-29.4602
G01 X39.5959 Y-29.6152
G01 X39.5106 Y-29.4602
G01 X38.9936 Y-29.4602
G01 X41.5064 Y-29.4602
G01 X41.4171 Y-29.4645
G01 X41.3926 Y-29.4663
G01 X41.3682 Y-29.4693
G01 X41.2906 Y-29.4808
G01 X41.2664 Y-29.4850
G01 X41.2424 Y-29.4904
G01 X41.1663 Y-29.5094
G01 X41.1426 Y-29.5160
G01 X41.1193 Y-29.5237
G01 X41.0454 Y-29.5501
G01 X41.0225 Y-29.5590
G01 X41.0112 Y-29.5638
G01 X40.9291 Y-29.6025
G01 X40.9072 Y-29.6135
G01 X40.8858 Y-29.6256
G01 X40.8185 Y-29.6660
G01 X40.7978 Y-29.6791
G01 X40.7777 Y-29.6932
G01 X40.7146 Y-29.7400
G01 X40.6953 Y-29.7551
G01 X40.6767 Y-29.7711
G01 X40.6185 Y-29.8238
G01 X40.6008 Y-29.8408
G01 X40.5838 Y-29.8585
G01 X40.5311 Y-29.9167
G01 X40.5230 Y-29.9259
G01 X40.5074 Y-29.9449
G01 X40.4532 Y-30.0177
G01 X40.4391 Y-30.0378
G01 X40.4260 Y-30.0585
G01 X40.3856 Y-30.1258
G01 X40.3735 Y-30.1472
G01 X40.3625 Y-30.1691
G01 X40.3289 Y-30.2401
G01 X40.3190 Y-30.2625
G01 X40.3101 Y-30.2854
G01 X40.2837 Y-30.3593
G01 X40.2760 Y-30.3826
G01 X40.2694 Y-30.4063
G01 X40.2500 Y-30.4839
G01 X40.2306 Y-30.4063
G01 X40.2240 Y-30.3826
G01 X40.2163 Y-30.3593
G01 X40.1899 Y-30.2854
G01 X40.1810 Y-30.2625
G01 X40.1711 Y-30.2401
G01 X40.1375 Y-30.1691
G01 X40.1265 Y-30.1472
G01 X40.1144 Y-30.1258
G01 X40.0740 Y-30.0585
G01 X40.0609 Y-30.0378
G01 X40.0540 Y-30.0276
G01 X40.0000 Y-29.9546
G01 X39.9849 Y-29.9353
G01 X39.9689 Y-29.9167
G01 X39.9162 Y-29.8585
G01 X39.8992 Y-29.8408
G01 X39.8815 Y-29.8238
G01 X39.8233 Y-29.7711
G01 X39.8047 Y-29.7551
G01 X39.7854 Y-29.7400
G01 X39.7223 Y-29.6932
G01 X39.7022 Y-29.6791
G01 X39.6815 Y-29.6660
G01 X39.6142 Y-29.6256
G01 X39.5928 Y-29.6135
G01 X39.5819 Y-29.6079
G01 X39.4999 Y-29.5689
G01 X39.4775 Y-29.5590
G01 X39.4546 Y-29.5501
G01 X39.3807 Y-29.5237
G01 X39.3574 Y-29.5160
G01 X39.3337 Y-29.5094
G01 X39.2576 Y-29.4904
G01 X39.2336 Y-29.4850
G01 X39.2094 Y-29.4808
G01 X39.1318 Y-29.4693
G01 X39.1074 Y-29.4663
G01 X39.0829 Y-29.4645
G01 X38.9936 Y-29.4602
G00 Z2.0000
G00 X38.8326 Y-29.4687
G01 F60.00
G01 Z-0.6000
G01 F120.00
G01 X38.8282 Y-29.4602
G00 Z2.0000
G00 X38.2639 Y-29.6751
G01 F60.00
G01 Z-0.6000
G01 F120.00
G01 X38.1523 Y-29.4602
G01 X37.4792 Y-29.4602
G01 X37.5231 Y-29.5501
G01 X37.8113 Y-30.1056
G01 X37.8338 Y-30.1466
G00 Z2.0000
G00 X37.5649 Y-30.9021
G01 F60.00
G01 Z-0.6000
G01 F120.00
G01 X37.2822 Y-30.3885
G01 X36.9872 Y-29.8199
G01 X36.8116 Y-29.4602
G01 X36.1452 Y-29.4602
G01 X36.1638 Y-29.5007
G01 X36.4512 Y-30.0896
G01 X36.7530 Y-30.6713
G01 X37.0690 Y-31.2454
G01 X37.1252 Y-31.3418
G01 X36.6864 Y-31.7805
G01 X36.5469 Y-31.5411
G01 X36.2239 Y-30.9541
G01 X35.9153 Y-30.3594
G01 X35.6214 Y-29.7573
G01 X35.5939 Y-29.6972
G01 X35.1440 Y-30.1470
G01 X35.3793 Y-30.6292
G01 X35.6947 Y-31.2370
G01 X36.0249 Y-31.8369
G01 X36.2477 Y-32.2192
G01 X35.8090 Y-32.6579
G01 X35.5028 Y-32.1326
G01 X35.1655 Y-31.5198
G01 X34.8434 Y-30.8989
G01 X34.6954 Y-30.5957
G01 X34.2468 Y-31.0443
G01 X34.3075 Y-31.1687
G01 X34.6364 Y-31.8026
G01 X34.9808 Y-32.4283
G01 X35.3404 Y-33.0454
G01 X35.3713 Y-33.0956
G01 X34.9353 Y-33.5316
G01 X34.8258 Y-33.3539
G01 X34.4587 Y-32.7241
G01 X34.1072 Y-32.0855
G01 X33.7992 Y-31.4918
G01 X33.3542 Y-31.9369
G01 X33.5781 Y-32.3683
G01 X33.9367 Y-33.0198
G01 X34.3111 Y-33.6623
G01 X34.4993 Y-33.9677
G01 X34.0632 Y-34.4037
G01 X33.7965 Y-33.9708
G01 X33.4146 Y-33.3156
G01 X33.0489 Y-32.6512
G01 X32.9092 Y-32.3819
G01 X32.4642 Y-32.8269
G01 X32.5198 Y-32.9340
G01 X32.8926 Y-33.6113
G01 X33.2819 Y-34.2792
G01 X33.4117 Y-34.4900
G00 Z2.0000
G00 X32.7631 Y-34.5806
G01 F60.00
G01 Z-0.6000
G01 F120.00
G01 X32.3705 Y-33.9070
G01 X32.0203 Y-33.2708
G01 X31.5786 Y-33.7125
G01 X31.8485 Y-34.2028
G01 X32.1770 Y-34.7664
G00 Z2.0000
G00 X31.3224 Y-34.4912
G01 F60.00
G01 Z-0.6000
G01 F120.00
G01 X31.1369 Y-34.1542
G01 X30.6952 Y-34.5959
G01 X30.7244 Y-34.6490
G00 Z2.0000
G00 X30.4152 Y-34.8759
G01 F60.00
G01 Z-0.6000
G01 F120.00
G01 X35.8309 Y-29.4602
G01 X38.9664 Y-29.4602
G01 X38.8771 Y-29.4645
G01 X38.8526 Y-29.4663
G01 X38.8282 Y-29.4693
G01 X38.7506 Y-29.4808
G01 X38.7264 Y-29.4850
G01 X38.7024 Y-29.4904
G01 X38.6263 Y-29.5094
G01 X38.6026 Y-29.5160
G01 X38.5793 Y-29.5237
G01 X38.5054 Y-29.5501
G01 X38.4825 Y-29.5590
G01 X38.4601 Y-29.5689
G01 X38.3891 Y-29.6025
G01 X38.3672 Y-29.6135
G01 X38.3458 Y-29.6256
G01 X38.2785 Y-29.6660
G01 X38.2578 Y-29.6791
G01 X38.2377 Y-29.6932
G01 X38.1746 Y-29.7400
G01 X38.1553 Y-29.7551
G01 X38.1367 Y-29.7711
G01 X38.0785 Y-29.8238
G01 X38.0608 Y-29.8408
G01 X38.0438 Y-29.8585
G01 X37.9911 Y-29.9167
G01 X37.9751 Y-29.9353
G01 X37.9600 Y-29.9546
G01 X37.9132 Y-30.0177
G01 X37.8991 Y-30.0378
G01 X37.8860 Y-30.0585
G01 X37.8456 Y-30.1258
G01 X37.8335 Y-30.1472
G01 X37.8225 Y-30.1691
G01 X37.7889 Y-30.2401
G01 X37.7790 Y-30.2625
G01 X37.7701 Y-30.2854
G01 X37.7437 Y-30.3593
G01 X37.7360 Y-30.3826
G01 X37.7294 Y-30.4063
G01 X37.7104 Y-30.4824
G01 X37.7050 Y-30.5064
G01 X37.7008 Y-30.5306
G01 X37.6893 Y-30.6082
G01 X37.6863 Y-30.6326
G01 X37.6845 Y-30.6571
G01 X37.6802 Y-30.7477
G01 X37.6802 Y-30.7723
G01 X37.6807 Y-30.7862
G01 X33.9769 Y-34.4900
G01 X33.0377 Y-34.4902
G01 X33.0132 Y-34.4914
G01 X33.0010 Y-34.4924
G01 X32.9766 Y-34.4954
G01 X32.9645 Y-34.4974
G01 X32.9404 Y-34.5021
G01 X32.9166 Y-34.5081
G01 X32.9049 Y-34.5115
G01 X32.8816 Y-34.5192
G01 X32.8701 Y-34.5235
G01 X32.8474 Y-34.5329
G01 X32.8362 Y-34.5380
G01 X32.8252 Y-34.5434
G01 X32.8036 Y-34.5550
G01 X32.7929 Y-34.5611
G01 X32.7722 Y-34.5743
G01 X32.7522 Y-34.5884
G01 X32.7424 Y-34.5958
G01 X32.7234 Y-34.6114
G01 X32.7142 Y-34.6195
G01 X32.7052 Y-34.6279
G01 X32.6879 Y-34.6452
G01 X32.6714 Y-34.6634
G01 X32.6635 Y-34.6728
G01 X32.6558 Y-34.6824
G01 X32.6412 Y-34.7021
G01 X32.6276 Y-34.7225
G01 X32.6211 Y-34.7329
G01 X32.6090 Y-34.7543
G01 X32.6034 Y-34.7652
G01 X32.5980 Y-34.7762
G01 X32.5881 Y-34.7987
G01 X32.5792 Y-34.8216
G01 X32.5752 Y-34.8332
G01 X32.5681 Y-34.8566
G01 X32.5650 Y-34.8685
G01 X32.5596 Y-34.8925
G01 X32.5574 Y-34.9045
G01 X32.5554 Y-34.9166
G01 X32.5525 Y-34.9398
G01 X32.3647 Y-34.9398
G01 X32.3232 Y-34.8942
G01 X32.3058 Y-34.8768
G01 X32.2258 Y-34.8043
G01 X32.2164 Y-34.7964
G01 X32.1971 Y-34.7813
G01 X32.1201 Y-34.7245
G01 X32.1100 Y-34.7175
G01 X32.0893 Y-34.7044
G01 X32.0177 Y-34.6615
G01 X31.9964 Y-34.6494
G01 X31.9745 Y-34.6384
G01 X31.8991 Y-34.6027
G01 X31.8879 Y-34.5976
G01 X31.8652 Y-34.5882
G01 X31.7752 Y-34.5558
G01 X31.7519 Y-34.5481
G01 X31.7282 Y-34.5416
G01 X31.6473 Y-34.5213
G01 X31.6234 Y-34.5159
G01 X31.5992 Y-34.5117
G01 X31.5167 Y-34.4995
G01 X31.4923 Y-34.4965
G01 X31.4678 Y-34.4947
G01 X31.3723 Y-34.4902
G01 X31.3600 Y-34.4900
G01 X31.3355 Y-34.4906
G01 X31.2522 Y-34.4947
G01 X31.2277 Y-34.4965
G01 X31.2033 Y-34.4995
G01 X31.1208 Y-34.5117
G01 X31.0966 Y-34.5159
G01 X31.0727 Y-34.5213
G01 X30.9918 Y-34.5416
G01 X30.9681 Y-34.5481
G01 X30.9448 Y-34.5558
G01 X30.8663 Y-34.5839
G01 X30.8434 Y-34.5928
G01 X30.8209 Y-34.6027
G01 X30.7455 Y-34.6384
G01 X30.7236 Y-34.6494
G01 X30.7023 Y-34.6615
G01 X30.6307 Y-34.7044
G01 X30.6100 Y-34.7175
G01 X30.5899 Y-34.7316
G01 X30.5229 Y-34.7813
G01 X30.5036 Y-34.7964
G01 X30.4850 Y-34.8125
G01 X30.4152 Y-34.8759
G00 Z2.0000
G00 X30.2535 Y-35.0376
G01 F60.00
G01 Z-0.6000
G01 F120.00
G01 X30.2629 Y-35.0547
G00 Z2.0000
G00 X30.0102 Y-35.8146
G01 F60.00
G01 Z-0.6000
G01 F120.00
G01 X30.0106 Y-35.8153
G00 Z2.0000
G00 X30.0102 Y-35.8264
G01 F60.00
G01 Z-0.6000
G01 F120.00
G01 X30.0102 Y-35.2809
G01 X30.3959 Y-34.8952
G01 X30.3325 Y-34.9650
G01 X30.3164 Y-34.9836
G01 X30.3013 Y-35.0029
G01 X30.2516 Y-35.0699
G01 X30.2375 Y-35.0900
G01 X30.2244 Y-35.1107
G01 X30.1815 Y-35.1823
G01 X30.1694 Y-35.2036
G01 X30.1584 Y-35.2255
G01 X30.1227 Y-35.3009
G01 X30.1128 Y-35.3234
G01 X30.1039 Y-35.3463
G01 X30.0758 Y-35.4248
G01 X30.0681 Y-35.4481
G01 X30.0616 Y-35.4718
G01 X30.0413 Y-35.5527
G01 X30.0359 Y-35.5766
G01 X30.0317 Y-35.6008
G01 X30.0195 Y-35.6833
G01 X30.0165 Y-35.7077
G01 X30.0147 Y-35.7322
G01 X30.0102 Y-35.8264
G00 Z2.0000
G00 X28.2102 Y-34.8890
G01 F60.00
G01 Z-0.6000
G01 F120.00
G01 X28.2102 Y-34.5353
G01 X28.4603 Y-34.2852
G01 X28.4302 Y-34.3184
G01 X28.4141 Y-34.3369
G01 X28.3990 Y-34.3563
G01 X28.3756 Y-34.3878
G01 X28.3615 Y-34.4079
G01 X28.3484 Y-34.4286
G01 X28.3282 Y-34.4623
G01 X28.3161 Y-34.4837
G01 X28.3051 Y-34.5056
G01 X28.2883 Y-34.5411
G01 X28.2783 Y-34.5635
G01 X28.2695 Y-34.5864
G01 X28.2563 Y-34.6234
G01 X28.2486 Y-34.6467
G01 X28.2420 Y-34.6704
G01 X28.2325 Y-34.7085
G01 X28.2271 Y-34.7324
G01 X28.2229 Y-34.7566
G01 X28.2171 Y-34.7954
G01 X28.2141 Y-34.8198
G01 X28.2123 Y-34.8443
G01 X28.2102 Y-34.8890
G00 Z2.0000
G00 X26.4104 Y-34.1382
G01 F60.00
G01 Z-0.6000
G01 F120.00
G01 X26.4095 Y-34.1363
G00 Z2.0000
G00 X26.7529 Y-33.4465
G01 F60.00
G01 Z-0.6000
G01 F120.00
G01 X26.7527 Y-33.4462
G01 X27.2055 Y-32.9939
G01 X27.2053 Y-32.9936
G01 X27.6583 Y-32.5411
G01 X27.6582 Y-32.5408
G01 X28.1152 Y-32.0842
G01 X28.1151 Y-32.0839
G01 X28.5721 Y-31.6273
G01 X28.5720 Y-31.6270
G01 X29.0290 Y-31.1704
G01 X29.0288 Y-31.1701
G01 X29.4882 Y-30.7111
G01 X29.4881 Y-30.7108
G01 X31.3415 Y-28.8579
G01 X31.3414 Y-28.8575
G01 X31.8081 Y-28.3912
G01 X31.8080 Y-28.3909
G01 X32.2782 Y-27.9212
G01 X32.2781 Y-27.9209
G01 X32.7502 Y-27.4491
G01 X32.7501 Y-27.4488
G01 X33.2233 Y-26.9761
G01 X33.2232 Y-26.9758
G01 X33.7012 Y-26.4981
G01 X33.7011 Y-26.4978
G01 X34.1791 Y-26.0202
G01 X34.1790 Y-26.0199
G00 Z2.0000
G00 X34.8352 Y-27.9103
G01 F60.00
G01 Z-0.6000
G01 F120.00
G01 X35.4453 Y-27.3002
G01 X48.0785 Y-27.3002
G01 X50.6930 Y-29.9147
G01 X50.6830 Y-29.9259
G01 X50.6674 Y-29.9449
G01 X50.6132 Y-30.0177
G01 X50.5991 Y-30.0378
G01 X50.5860 Y-30.0585
G01 X50.5456 Y-30.1258
G01 X50.5394 Y-30.1364
G01 X50.5279 Y-30.1581
G01 X50.4838 Y-30.2512
G01 X50.4744 Y-30.2739
G01 X50.4701 Y-30.2854
G01 X50.4437 Y-30.3593
G01 X50.4360 Y-30.3826
G01 X50.4294 Y-30.4063
G01 X50.4100 Y-30.4839
G01 X50.3906 Y-30.4063
G01 X50.3840 Y-30.3826
G01 X50.3763 Y-30.3593
G01 X50.3499 Y-30.2854
G01 X50.3410 Y-30.2625
G01 X50.3311 Y-30.2401
G01 X50.2975 Y-30.1691
G01 X50.2865 Y-30.1472
G01 X50.2744 Y-30.1258
G01 X50.2340 Y-30.0585
G01 X50.2209 Y-30.0378
G01 X50.2068 Y-30.0177
G01 X50.1600 Y-29.9546
G01 X50.1449 Y-29.9353
G01 X50.1289 Y-29.9167
G01 X50.0762 Y-29.8585
G01 X50.0592 Y-29.8408
G01 X50.0415 Y-29.8238
G01 X49.9833 Y-29.7711
G01 X49.9647 Y-29.7551
G01 X49.9454 Y-29.7400
G01 X49.8823 Y-29.6932
G01 X49.8622 Y-29.6791
G01 X49.8415 Y-29.6660
G01 X49.7742 Y-29.6256
G01 X49.7528 Y-29.6135
G01 X49.7309 Y-29.6025
G01 X49.6599 Y-29.5689
G01 X49.6375 Y-29.5590
G01 X49.6146 Y-29.5501
G01 X49.5407 Y-29.5237
G01 X49.5174 Y-29.5160
G01 X49.4937 Y-29.5094
G01 X49.4176 Y-29.4904
G01 X49.3936 Y-29.4850
G01 X49.3694 Y-29.4808
G01 X49.2918 Y-29.4693
G01 X49.2674 Y-29.4663
G01 X49.2429 Y-29.4645
G01 X49.1645 Y-29.4606
G01 X49.1400 Y-29.4600
G01 X49.1155 Y-29.4606
G01 X49.0371 Y-29.4645
G01 X49.0126 Y-29.4663
G01 X48.9882 Y-29.4693
G01 X48.9106 Y-29.4808
G01 X48.8864 Y-29.4850
G01 X48.8624 Y-29.4904
G01 X48.7863 Y-29.5094
G01 X48.7626 Y-29.5160
G01 X48.7393 Y-29.5237
G01 X48.6654 Y-29.5501
G01 X48.6425 Y-29.5590
G01 X48.6201 Y-29.5689
G01 X48.5491 Y-29.6025
G01 X48.5272 Y-29.6135
G01 X48.5058 Y-29.6256
G01 X48.4385 Y-29.6660
G01 X48.4178 Y-29.6791
G01 X48.3977 Y-29.6932
G01 X48.3346 Y-29.7400
G01 X48.3153 Y-29.7551
G01 X48.2967 Y-29.7711
G01 X48.2385 Y-29.8238
G01 X48.2208 Y-29.8408
G01 X48.2038 Y-29.8585
G01 X48.1511 Y-29.9167
G01 X48.1351 Y-29.9353
G01 X48.1200 Y-29.9546
G01 X48.0732 Y-30.0177
G01 X48.0591 Y-30.0378
G01 X48.0460 Y-30.0585
G01 X48.0056 Y-30.1258
G01 X47.9935 Y-30.1472
G01 X47.9825 Y-30.1691
G01 X47.9489 Y-30.2401
G01 X47.9390 Y-30.2625
G01 X47.9301 Y-30.2854
G01 X47.9037 Y-30.3593
G01 X47.8960 Y-30.3826
G01 X47.8894 Y-30.4063
G01 X47.8700 Y-30.4839
G01 X47.8506 Y-30.4063
G01 X47.8440 Y-30.3826
G01 X47.8363 Y-30.3593
G01 X47.8099 Y-30.2854
G01 X47.8010 Y-30.2625
G01 X47.7911 Y-30.2401
G01 X47.7575 Y-30.1691
G01 X47.7465 Y-30.1472
G01 X47.7344 Y-30.1258
G01 X47.6940 Y-30.0585
G01 X47.6809 Y-30.0378
G01 X47.6668 Y-30.0177
G01 X47.6200 Y-29.9546
G01 X47.6049 Y-29.9353
G01 X47.5889 Y-29.9167
G01 X47.5362 Y-29.8585
G01 X47.5192 Y-29.8408
G01 X47.5015 Y-29.8238
G01 X47.4433 Y-29.7711
G01 X47.4247 Y-29.7551
G01 X47.4054 Y-29.7400
G01 X47.3423 Y-29.6932
G01 X47.3222 Y-29.6791
G01 X47.3015 Y-29.6660
G01 X47.2236 Y-29.6194
G01 X47.2019 Y-29.6079
G01 X47.1909 Y-29.6025
G01 X47.1199 Y-29.5689
G01 X47.0975 Y-29.5590
G01 X47.0861 Y-29.5544
G01 X46.9891 Y-29.5197
G01 X46.9656 Y-29.5126
G01 X46.9537 Y-29.5094
G01 X46.8776 Y-29.4904
G01 X46.8536 Y-29.4850
G01 X46.8294 Y-29.4808
G01 X46.7518 Y-29.4693
G01 X46.7274 Y-29.4663
G01 X46.7029 Y-29.4645
G01 X46.6245 Y-29.4606
G01 X46.6000 Y-29.4600
G01 X46.5755 Y-29.4606
G01 X46.4971 Y-29.4645
G01 X46.4726 Y-29.4663
G01 X46.4482 Y-29.4693
G01 X46.3706 Y-29.4808
G01 X46.3464 Y-29.4850
G01 X46.3224 Y-29.4904
G01 X46.2463 Y-29.5094
G01 X46.2226 Y-29.5160
G01 X46.1993 Y-29.5237
G01 X46.1254 Y-29.5501
G01 X46.1025 Y-29.5590
G01 X46.0801 Y-29.5689
G01 X46.0091 Y-29.6025
G01 X45.9872 Y-29.6135
G01 X45.9658 Y-29.6256
G01 X45.8985 Y-29.6660
G01 X45.8880 Y-29.6724
G01 X45.8676 Y-29.6860
G01 X45.7946 Y-29.7400
G01 X45.7753 Y-29.7551
G01 X45.7567 Y-29.7711
G01 X45.6985 Y-29.8238
G01 X45.6808 Y-29.8408
G01 X45.6638 Y-29.8585
G01 X45.6111 Y-29.9167
G01 X45.5951 Y-29.9353
G01 X45.5800 Y-29.9546
G01 X45.5332 Y-30.0177
G01 X45.5191 Y-30.0378
G01 X45.5060 Y-30.0585
G01 X45.4656 Y-30.1258
G01 X45.4535 Y-30.1472
G01 X45.4425 Y-30.1691
G01 X45.4089 Y-30.2401
G01 X45.4038 Y-30.2512
G01 X45.3944 Y-30.2739
G01 X45.3637 Y-30.3593
G01 X45.3560 Y-30.3826
G01 X45.3494 Y-30.4063
G01 X45.3300 Y-30.4839
G01 X45.3106 Y-30.4063
G01 X45.3040 Y-30.3826
G01 X45.2963 Y-30.3593
G01 X45.2656 Y-30.2739
G01 X45.2610 Y-30.2625
G01 X45.2511 Y-30.2401
G01 X45.2175 Y-30.1691
G01 X45.2065 Y-30.1472
G01 X45.2006 Y-30.1364
G01 X45.1540 Y-30.0585
G01 X45.1409 Y-30.0378
G01 X45.1268 Y-30.0177
G01 X45.0726 Y-29.9449
G01 X45.0570 Y-29.9259
G01 X45.0489 Y-29.9167
G01 X44.9962 Y-29.8585
G01 X44.9792 Y-29.8408
G01 X44.9602 Y-29.8227
G01 X44.9602 Y-29.6286
G01 X44.9596 Y-29.6041
G01 X44.9569 Y-29.5526
G01 X44.9545 Y-29.5282
G01 X44.9451 Y-29.4651
G01 X44.9404 Y-29.4410
G01 X44.9280 Y-29.3910
G01 X44.9214 Y-29.3673
G01 X44.9177 Y-29.3556
G01 X44.8962 Y-29.2955
G01 X44.8868 Y-29.2729
G01 X44.8596 Y-29.2152
G01 X44.8480 Y-29.1935
G01 X44.8152 Y-29.1388
G01 X44.8015 Y-29.1184
G01 X44.7635 Y-29.0671
G01 X44.7559 Y-29.0575
G01 X44.7398 Y-29.0390
G01 X44.7135 Y-29.0099
G01 X44.6965 Y-28.9921
G01 X43.6279 Y-27.9235
G01 X43.6101 Y-27.9065
G01 X43.5810 Y-27.8802
G01 X43.5625 Y-27.8641
G01 X43.5431 Y-27.8490
G01 X43.5116 Y-27.8256
G01 X43.4915 Y-27.8115
G01 X43.4708 Y-27.7984
G01 X43.4371 Y-27.7782
G01 X43.4265 Y-27.7720
G01 X43.4048 Y-27.7604
G01 X43.3583 Y-27.7383
G01 X43.3359 Y-27.7283
G01 X43.3130 Y-27.7195
G01 X43.2644 Y-27.7023
G01 X43.2409 Y-27.6951
G01 X43.2290 Y-27.6920
G01 X43.1909 Y-27.6825
G01 X43.1670 Y-27.6771
G01 X43.1428 Y-27.6729
G01 X43.0918 Y-27.6655
G01 X43.0796 Y-27.6641
G01 X43.0551 Y-27.6623
G01 X43.0159 Y-27.6604
G01 X42.9914 Y-27.6598
G01 X35.4457 Y-27.6600
G01 X35.3943 Y-27.6623
G01 X35.3698 Y-27.6641
G01 X35.3454 Y-27.6671
G01 X35.3066 Y-27.6729
G01 X35.2824 Y-27.6771
G01 X35.2585 Y-27.6825
G01 X35.2204 Y-27.6920
G01 X35.1967 Y-27.6986
G01 X35.1734 Y-27.7063
G01 X35.1364 Y-27.7195
G01 X35.1135 Y-27.7283
G01 X35.0911 Y-27.7383
G01 X35.0556 Y-27.7551
G01 X35.0337 Y-27.7661
G01 X35.0123 Y-27.7782
G01 X34.9786 Y-27.7984
G01 X34.9579 Y-27.8115
G01 X34.9378 Y-27.8256
G01 X34.9063 Y-27.8490
G01 X34.8869 Y-27.8641
G01 X34.8684 Y-27.8802
G01 X34.8352 Y-27.9103
G00 Z2.0000
G00 X35.3780 Y-27.6634
G01 F60.00
G01 Z-0.6000
G01 F120.00
G01 X35.2978 Y-27.4477
G01 X35.8830 Y-27.3002
G01 X35.9492 Y-27.4783
G01 X36.0218 Y-27.6598
G01 X36.5241 Y-27.3002
G01 X36.6679 Y-27.6598
G01 X37.1703 Y-27.3002
G01 X37.2957 Y-27.6138
G01 X37.3154 Y-27.6598
G01 X37.8164 Y-27.3002
G01 X37.8500 Y-27.3842
G01 X37.9682 Y-27.6598
G01 X38.4668 Y-27.3002
G01 X38.6209 Y-27.6598
G01 X39.1195 Y-27.3002
G01 X39.1821 Y-27.4461
G01 X39.2800 Y-27.6598
G01 X39.7751 Y-27.3002
G01 X39.9398 Y-27.6598
G01 X40.4350 Y-27.3002
G01 X40.5029 Y-27.4485
G01 X40.6061 Y-27.6598
G01 X41.0982 Y-27.3002
G01 X41.2737 Y-27.6598
G01 X41.7658 Y-27.3002
G01 X41.8106 Y-27.3920
G01 X41.9495 Y-27.6598
G01 X42.4389 Y-27.3002
G01 X42.5737 Y-27.5601
G01 X42.6286 Y-27.6598
G01 X43.1155 Y-27.3002
G01 X43.3336 Y-27.6965
G01 X43.3578 Y-27.7380
G01 X43.8003 Y-27.3002
G01 X43.8557 Y-27.4008
G01 X44.0892 Y-27.8015
G01 X44.3326 Y-28.1965
G01 X44.5855 Y-28.5853
G01 X44.8480 Y-28.9678
G01 X45.1197 Y-29.3437
G01 X45.4006 Y-29.7129
G01 X45.5868 Y-29.9456
G00 Z2.0000
G00 X46.0610 Y-29.5779
G01 F60.00
G01 Z-0.6000
G01 F120.00
G01 X45.8736 Y-29.3437
G01 X45.6016 Y-28.9863
G01 X45.3385 Y-28.6223
G01 X45.0844 Y-28.2519
G01 X44.8395 Y-27.8755
G01 X44.6039 Y-27.4931
G01 X44.4915 Y-27.3002
G01 X45.1897 Y-27.3002
G01 X45.3464 Y-27.5545
G01 X45.5833 Y-27.9186
G01 X45.8291 Y-28.2768
G01 X46.0835 Y-28.6289
G01 X46.3466 Y-28.9746
G01 X46.6180 Y-29.3138
G01 X46.7485 Y-29.4688
G00 Z2.0000
G00 X48.0650 Y-30.0292
G01 F60.00
G01 Z-0.6000
G01 F120.00
G01 X47.9157 Y-29.8761
G01 X47.6300 Y-29.5687
G01 X47.3520 Y-29.2543
G01 X47.0818 Y-28.9331
G01 X46.8196 Y-28.6055
G01 X46.5655 Y-28.2715
G01 X46.3196 Y-27.9313
G01 X46.0822 Y-27.5853
G01 X45.8967 Y-27.3002
G01 X46.6142 Y-27.3002
G01 X46.8102 Y-27.5858
G01 X47.0474 Y-27.9140
G01 X47.2926 Y-28.2363
G01 X47.5456 Y-28.5525
G01 X47.8064 Y-28.8624
G01 X48.0746 Y-29.1657
G01 X48.3502 Y-29.4624
G01 X48.5081 Y-29.6243
G00 Z2.0000
G00 X49.1947 Y-29.4621
G01 F60.00
G01 Z-0.6000
G01 F120.00
G01 X49.0573 Y-29.3280
G01 X48.7848 Y-29.0487
G01 X48.5192 Y-28.7628
G01 X48.2607 Y-28.4704
G01 X48.0094 Y-28.1719
G01 X47.7656 Y-27.8672
G01 X47.5293 Y-27.5566
G01 X47.3440 Y-27.3002
G01 X48.1186 Y-27.3403
G01 X48.2386 Y-27.4980
G01 X48.4732 Y-27.7912
G01 X48.7150 Y-28.0785
G01 X48.9638 Y-28.3599
G01 X49.2193 Y-28.6350
G01 X49.4816 Y-28.9037
G01 X49.7503 Y-29.1660
G01 X50.0255 Y-29.4216
G01 X50.3068 Y-29.6703
G01 X50.5941 Y-29.9121
G01 X50.6553 Y-29.9610
G00 Z2.0000
G00 X50.4100 Y-31.0361
G01 F60.00
G01 Z-0.6000
G01 F120.00
G01 X50.4294 Y-31.1137
G01 X50.4360 Y-31.1374
G01 X50.4437 Y-31.1607
G01 X50.4701 Y-31.2346
G01 X50.4790 Y-31.2575
G01 X50.4889 Y-31.2799
G01 X50.5225 Y-31.3509
G01 X50.5335 Y-31.3728
G01 X50.5456 Y-31.3942
G01 X50.5860 Y-31.4615
G01 X50.5991 Y-31.4822
G01 X50.6060 Y-31.4924
G01 X50.6600 Y-31.5654
G01 X50.6751 Y-31.5847
G01 X50.6911 Y-31.6033
G01 X50.7438 Y-31.6615
G01 X50.7608 Y-31.6792
G01 X50.7785 Y-31.6962
G01 X50.8367 Y-31.7489
G01 X50.8553 Y-31.7649
G01 X50.8746 Y-31.7800
G01 X50.9377 Y-31.8268
G01 X50.9578 Y-31.8409
G01 X50.9785 Y-31.8540
G01 X51.0458 Y-31.8944
G01 X51.0672 Y-31.9065
G01 X51.0891 Y-31.9175
G01 X51.1712 Y-31.9562
G01 X51.1825 Y-31.9610
G01 X51.2054 Y-31.9699
G01 X51.2793 Y-31.9963
G01 X51.3026 Y-32.0040
G01 X51.3263 Y-32.0106
G01 X51.4024 Y-32.0296
G01 X51.4264 Y-32.0350
G01 X51.4506 Y-32.0392
G01 X51.5282 Y-32.0507
G01 X51.5526 Y-32.0537
G01 X51.5771 Y-32.0555
G01 X51.6664 Y-32.0598
G01 X49.1536 Y-32.0598
G01 X49.2429 Y-32.0555
G01 X49.2674 Y-32.0537
G01 X49.2918 Y-32.0507
G01 X49.3694 Y-32.0392
G01 X49.3936 Y-32.0350
G01 X49.4176 Y-32.0296
G01 X49.4937 Y-32.0106
G01 X49.5174 Y-32.0040
G01 X49.5407 Y-31.9963
G01 X49.6146 Y-31.9699
G01 X49.6375 Y-31.9610
G01 X49.6488 Y-31.9562
G01 X49.7309 Y-31.9175
G01 X49.7528 Y-31.9065
G01 X49.7742 Y-31.8944
G01 X49.8415 Y-31.8540
G01 X49.8622 Y-31.8409
G01 X49.8823 Y-31.8268
G01 X49.9454 Y-31.7800
G01 X49.9647 Y-31.7649
G01 X49.9833 Y-31.7489
G01 X50.0415 Y-31.6962
G01 X50.0592 Y-31.6792
G01 X50.0762 Y-31.6615
G01 X50.1289 Y-31.6033
G01 X50.1370 Y-31.5941
G01 X50.1526 Y-31.5751
G01 X50.2068 Y-31.5023
G01 X50.2209 Y-31.4822
G01 X50.2340 Y-31.4615
G01 X50.2744 Y-31.3942
G01 X50.2865 Y-31.3728
G01 X50.2975 Y-31.3509
G01 X50.3311 Y-31.2799
G01 X50.3410 Y-31.2575
G01 X50.3499 Y-31.2346
G01 X50.3763 Y-31.1607
G01 X50.3840 Y-31.1374
G01 X50.3906 Y-31.1137
G01 X50.4100 Y-31.0361
G00 Z2.0000
G00 X50.3467 Y-31.2431
G01 F60.00
G01 Z-0.6000
G01 F120.00
G01 X50.4713 Y-31.3379
G01 X50.5431 Y-31.3898
G00 Z2.0000
G00 X50.0003 Y-31.7335
G01 F60.00
G01 Z-0.6000
G01 F120.00
G01 X50.1138 Y-31.8198
G01 X50.4458 Y-32.0598
G01 X49.4384 Y-32.0598
G01 X49.4035 Y-32.0329
G00 Z2.0000
G00 X49.1264 Y-32.0598
G01 F60.00
G01 Z-0.6000
G01 F120.00
G01 X48.0415 Y-32.0598
G01 X47.5870 Y-31.6053
G01 X47.5970 Y-31.5941
G01 X47.6126 Y-31.5751
G01 X47.6668 Y-31.5023
G01 X47.6809 Y-31.4822
G01 X47.6940 Y-31.4615
G01 X47.7344 Y-31.3942
G01 X47.7406 Y-31.3836
G01 X47.7521 Y-31.3619
G01 X47.7962 Y-31.2688
G01 X47.8056 Y-31.2461
G01 X47.8099 Y-31.2346
G01 X47.8363 Y-31.1607
G01 X47.8440 Y-31.1374
G01 X47.8506 Y-31.1137
G01 X47.8700 Y-31.0361
G01 X47.8894 Y-31.1137
G01 X47.8960 Y-31.1374
G01 X47.9037 Y-31.1607
G01 X47.9301 Y-31.2346
G01 X47.9390 Y-31.2575
G01 X47.9489 Y-31.2799
G01 X47.9825 Y-31.3509
G01 X47.9935 Y-31.3728
G01 X48.0056 Y-31.3942
G01 X48.0460 Y-31.4615
G01 X48.0591 Y-31.4822
G01 X48.0660 Y-31.4924
G01 X48.1200 Y-31.5654
G01 X48.1351 Y-31.5847
G01 X48.1511 Y-31.6033
G01 X48.2038 Y-31.6615
G01 X48.2208 Y-31.6792
G01 X48.2385 Y-31.6962
G01 X48.2967 Y-31.7489
G01 X48.3153 Y-31.7649
G01 X48.3346 Y-31.7800
G01 X48.3977 Y-31.8268
G01 X48.4178 Y-31.8409
G01 X48.4385 Y-31.8540
G01 X48.5058 Y-31.8944
G01 X48.5272 Y-31.9065
G01 X48.5491 Y-31.9175
G01 X48.6312 Y-31.9562
G01 X48.6425 Y-31.9610
G01 X48.6654 Y-31.9699
G01 X48.7393 Y-31.9963
G01 X48.7626 Y-32.0040
G01 X48.7863 Y-32.0106
G01 X48.8624 Y-32.0296
G01 X48.8864 Y-32.0350
G01 X48.9106 Y-32.0392
G01 X48.9882 Y-32.0507
G01 X49.0126 Y-32.0537
G01 X49.0371 Y-32.0555
G01 X49.1264 Y-32.0598
G00 Z2.0000
G00 X48.4873 Y-32.0598
G01 F60.00
G01 Z-0.6000
G01 F120.00
G01 X48.3472 Y-31.9419
G01 X48.0108 Y-31.6444
G01 X47.7369 Y-31.3900
G00 Z2.0000
G00 X45.6999 Y-31.8984
G01 F60.00
G01 Z-0.6000
G01 F120.00
G01 X45.4072 Y-31.5833
G01 X45.2119 Y-31.3625
G00 Z2.0000
G00 X45.3300 Y-31.0361
G01 F60.00
G01 Z-0.6000
G01 F120.00
G01 X45.3494 Y-31.1137
G01 X45.3560 Y-31.1374
G01 X45.3637 Y-31.1607
G01 X45.3944 Y-31.2461
G01 X45.3990 Y-31.2575
G01 X45.4089 Y-31.2799
G01 X45.4425 Y-31.3509
G01 X45.4479 Y-31.3619
G01 X45.4594 Y-31.3836
G01 X45.5060 Y-31.4615
G01 X45.5191 Y-31.4822
G01 X45.5332 Y-31.5023
G01 X45.5874 Y-31.5751
G01 X45.6030 Y-31.5941
G01 X45.6111 Y-31.6033
G01 X45.6638 Y-31.6615
G01 X45.6808 Y-31.6792
G01 X45.6998 Y-31.6973
G01 X45.6998 Y-31.8914
G01 X45.7004 Y-31.9159
G01 X45.7031 Y-31.9674
G01 X45.7055 Y-31.9918
G01 X45.7149 Y-32.0549
G01 X45.7196 Y-32.0790
G01 X45.7320 Y-32.1290
G01 X45.7386 Y-32.1527
G01 X45.7423 Y-32.1644
G01 X45.7638 Y-32.2245
G01 X45.7732 Y-32.2471
G01 X45.8004 Y-32.3048
G01 X45.8120 Y-32.3265
G01 X45.8448 Y-32.3812
G01 X45.8585 Y-32.4016
G01 X45.8965 Y-32.4529
G01 X45.9041 Y-32.4625
G01 X45.9202 Y-32.4810
G01 X45.9465 Y-32.5101
G01 X45.9635 Y-32.5279
G01 X47.0321 Y-33.5965
G01 X47.0499 Y-33.6135
G01 X47.0882 Y-33.6480
G01 X47.1071 Y-33.6635
G01 X47.1169 Y-33.6710
G01 X47.1484 Y-33.6944
G01 X47.1685 Y-33.7085
G01 X47.1892 Y-33.7216
G01 X47.2335 Y-33.7480
G01 X47.2552 Y-33.7596
G01 X47.2662 Y-33.7649
G01 X47.3017 Y-33.7817
G01 X47.3241 Y-33.7917
G01 X47.3470 Y-33.8005
G01 X47.3956 Y-33.8177
G01 X47.4191 Y-33.8249
G01 X47.4310 Y-33.8280
G01 X47.4691 Y-33.8375
G01 X47.4930 Y-33.8429
G01 X47.5172 Y-33.8471
G01 X47.5560 Y-33.8529
G01 X47.5804 Y-33.8559
G01 X47.6049 Y-33.8577
G01 X47.6441 Y-33.8596
G01 X47.6686 Y-33.8602
G01 X64.3091 Y-33.8602
G01 X65.3248 Y-34.8759
G01 X65.2550 Y-34.8125
G01 X65.2364 Y-34.7964
G01 X65.2171 Y-34.7813
G01 X65.1501 Y-34.7316
G01 X65.1300 Y-34.7175
G01 X65.1093 Y-34.7044
G01 X65.0377 Y-34.6615
G01 X65.0164 Y-34.6494
G01 X64.9945 Y-34.6384
G01 X64.9191 Y-34.6027
G01 X64.8966 Y-34.5928
G01 X64.8852 Y-34.5882
G01 X64.7952 Y-34.5558
G01 X64.7719 Y-34.5481
G01 X64.7482 Y-34.5416
G01 X64.6673 Y-34.5213
G01 X64.6434 Y-34.5159
G01 X64.6313 Y-34.5137
G01 X64.5367 Y-34.4995
G01 X64.5245 Y-34.4979
G01 X64.5001 Y-34.4954
G01 X64.4045 Y-34.4906
G01 X64.3800 Y-34.4900
G01 X64.3677 Y-34.4902
G01 X64.2599 Y-34.4954
G01 X64.2477 Y-34.4965
G01 X64.2233 Y-34.4995
G01 X64.1408 Y-34.5117
G01 X64.1166 Y-34.5159
G01 X64.0927 Y-34.5213
G01 X64.0118 Y-34.5416
G01 X63.9999 Y-34.5447
G01 X63.9764 Y-34.5518
G01 X63.8748 Y-34.5882
G01 X63.8634 Y-34.5928
G01 X63.8409 Y-34.6027
G01 X63.7655 Y-34.6384
G01 X63.7436 Y-34.6494
G01 X63.7223 Y-34.6615
G01 X63.6507 Y-34.7044
G01 X63.6403 Y-34.7108
G01 X63.6199 Y-34.7245
G01 X63.5429 Y-34.7813
G01 X63.5236 Y-34.7964
G01 X63.5142 Y-34.8043
G01 X63.4342 Y-34.8768
G01 X63.4168 Y-34.8942
G01 X63.3756 Y-34.9394
G01 X63.1874 Y-34.9395
G01 X63.1846 Y-34.9166
G01 X63.1804 Y-34.8925
G01 X63.1750 Y-34.8685
G01 X63.1719 Y-34.8566
G01 X63.1648 Y-34.8332
G01 X63.1608 Y-34.8216
G01 X63.1519 Y-34.7987
G01 X63.1420 Y-34.7762
G01 X63.1310 Y-34.7543
G01 X63.1250 Y-34.7436
G01 X63.1189 Y-34.7329
G01 X63.1057 Y-34.7122
G01 X63.0916 Y-34.6922
G01 X63.0842 Y-34.6824
G01 X63.0686 Y-34.6634
G01 X63.0521 Y-34.6452
G01 X63.0436 Y-34.6364
G01 X63.0258 Y-34.6195
G01 X63.0072 Y-34.6035
G01 X62.9878 Y-34.5884
G01 X62.9678 Y-34.5743
G01 X62.9575 Y-34.5676
G01 X62.9364 Y-34.5550
G01 X62.9148 Y-34.5434
G01 X62.8926 Y-34.5329
G01 X62.8813 Y-34.5281
G01 X62.8584 Y-34.5192
G01 X62.8351 Y-34.5115
G01 X62.8234 Y-34.5081
G01 X62.7996 Y-34.5021
G01 X62.7875 Y-34.4996
G01 X62.7634 Y-34.4954
G01 X62.7390 Y-34.4924
G01 X62.7268 Y-34.4914
G01 X62.7145 Y-34.4906
G01 X62.6900 Y-34.4900
G01 X60.9777 Y-34.4902
G01 X60.9532 Y-34.4914
G01 X60.9288 Y-34.4938
G01 X60.9045 Y-34.4974
G01 X60.8804 Y-34.5021
G01 X60.8566 Y-34.5081
G01 X60.8449 Y-34.5115
G01 X60.8216 Y-34.5192
G01 X60.7987 Y-34.5281
G01 X60.7762 Y-34.5380
G01 X60.7543 Y-34.5490
G01 X60.7436 Y-34.5550
G01 X60.7329 Y-34.5611
G01 X60.7122 Y-34.5743
G01 X60.6922 Y-34.5884
G01 X60.6728 Y-34.6035
G01 X60.6542 Y-34.6195
G01 X60.6452 Y-34.6279
G01 X60.6279 Y-34.6452
G01 X60.6195 Y-34.6542
G01 X60.6035 Y-34.6728
G01 X60.5884 Y-34.6922
G01 X60.5743 Y-34.7122
G01 X60.5611 Y-34.7329
G01 X60.5490 Y-34.7543
G01 X60.5434 Y-34.7652
G01 X60.5329 Y-34.7874
G01 X60.5235 Y-34.8101
G01 X60.5192 Y-34.8216
G01 X60.5152 Y-34.8332
G01 X60.5081 Y-34.8566
G01 X60.5021 Y-34.8804
G01 X60.4996 Y-34.8925
G01 X60.4954 Y-34.9166
G01 X60.4924 Y-34.9410
G01 X60.4906 Y-34.9655
G01 X60.4900 Y-34.9900
G01 X60.4900 Y-35.9169
G01 X58.9271 Y-37.4798
G01 X48.9416 Y-37.4798
G01 X43.1505 Y-31.6887
G01 X43.2167 Y-31.7489
G01 X43.2353 Y-31.7649
G01 X43.2546 Y-31.7800
G01 X43.3177 Y-31.8268
G01 X43.3378 Y-31.8409
G01 X43.3585 Y-31.8540
G01 X43.4258 Y-31.8944
G01 X43.4472 Y-31.9065
G01 X43.4691 Y-31.9175
G01 X43.5401 Y-31.9511
G01 X43.5625 Y-31.9610
G01 X43.5854 Y-31.9699
G01 X43.6593 Y-31.9963
G01 X43.6826 Y-32.0040
G01 X43.7063 Y-32.0106
G01 X43.7824 Y-32.0296
G01 X43.8064 Y-32.0350
G01 X43.8306 Y-32.0392
G01 X43.9082 Y-32.0507
G01 X43.9326 Y-32.0537
G01 X43.9571 Y-32.0555
G01 X44.0355 Y-32.0594
G01 X44.0600 Y-32.0600
G01 X44.0845 Y-32.0594
G01 X44.1629 Y-32.0555
G01 X44.1874 Y-32.0537
G01 X44.2118 Y-32.0507
G01 X44.2894 Y-32.0392
G01 X44.3136 Y-32.0350
G01 X44.3376 Y-32.0296
G01 X44.4137 Y-32.0106
G01 X44.4374 Y-32.0040
G01 X44.4607 Y-31.9963
G01 X44.5346 Y-31.9699
G01 X44.5575 Y-31.9610
G01 X44.5799 Y-31.9511
G01 X44.6509 Y-31.9175
G01 X44.6728 Y-31.9065
G01 X44.6942 Y-31.8944
G01 X44.7615 Y-31.8540
G01 X44.7822 Y-31.8409
G01 X44.8023 Y-31.8268
G01 X44.8654 Y-31.7800
G01 X44.8847 Y-31.7649
G01 X44.9033 Y-31.7489
G01 X44.9615 Y-31.6962
G01 X44.9792 Y-31.6792
G01 X44.9962 Y-31.6615
G01 X45.0489 Y-31.6033
G01 X45.0649 Y-31.5847
G01 X45.0800 Y-31.5654
G01 X45.1268 Y-31.5023
G01 X45.1409 Y-31.4822
G01 X45.1540 Y-31.4615
G01 X45.1944 Y-31.3942
G01 X45.2065 Y-31.3728
G01 X45.2175 Y-31.3509
G01 X45.2511 Y-31.2799
G01 X45.2610 Y-31.2575
G01 X45.2699 Y-31.2346
G01 X45.2963 Y-31.1607
G01 X45.3040 Y-31.1374
G01 X45.3106 Y-31.1137
G01 X45.3300 Y-31.0361
G00 Z2.0000
G00 X44.8140 Y-31.8181
G01 F60.00
G01 Z-0.6000
G01 F120.00
G01 X44.8178 Y-31.8225
G00 Z2.0000
G00 X44.3333 Y-32.1803
G01 F60.00
G01 Z-0.6000
G01 F120.00
G01 X44.2179 Y-32.0498
G01 X44.2376 Y-32.5034
G01 X44.2364 Y-32.5282
G01 X44.2365 Y-32.5531
G01 X44.2370 Y-32.5655
G01 X44.2389 Y-32.5902
G01 X44.2403 Y-32.6026
G01 X44.2421 Y-32.6149
G01 X44.2464 Y-32.6393
G01 X44.2520 Y-32.6635
G01 X44.2552 Y-32.6755
G01 X44.2626 Y-32.6992
G01 X44.2667 Y-32.7109
G01 X44.2711 Y-32.7225
G01 X44.2808 Y-32.7454
G01 X44.2916 Y-32.7678
G01 X44.3309 Y-32.8401
G01 X44.3428 Y-32.8607
G01 X44.3491 Y-32.8708
G01 X44.3625 Y-32.8905
G01 X44.3767 Y-32.9095
G01 X44.3919 Y-32.9279
G01 X44.3998 Y-32.9368
G01 X44.4162 Y-32.9540
G01 X48.7686 Y-37.3061
G01 X48.7784 Y-37.3152
G01 X48.7988 Y-37.3325
G01 X48.8194 Y-37.3491
G01 X48.8389 Y-37.3641
G01 X48.8591 Y-37.3780
G01 X48.8799 Y-37.3910
G01 X48.8906 Y-37.3970
G01 X48.9123 Y-37.4084
G01 X48.9346 Y-37.4187
G01 X48.9459 Y-37.4234
G01 X48.9574 Y-37.4279
G01 X48.9806 Y-37.4360
G01 X49.0593 Y-37.4592
G01 X49.0823 Y-37.4654
G01 X49.0939 Y-37.4681
G01 X49.1173 Y-37.4726
G01 X49.1290 Y-37.4744
G01 X49.1527 Y-37.4772
G01 X49.1764 Y-37.4789
G01 X49.2002 Y-37.4795
G01 X58.6685 Y-37.4795
G01 X58.6953 Y-37.4788
G01 X58.7087 Y-37.4779
G01 X58.7483 Y-37.4738
G01 X58.7727 Y-37.4706
G01 X58.7848 Y-37.4685
G01 X58.8088 Y-37.4635
G01 X58.8325 Y-37.4573
G01 X58.8443 Y-37.4538
G01 X58.8560 Y-37.4500
G01 X58.8790 Y-37.4415
G01 X58.8903 Y-37.4369
G01 X58.9127 Y-37.4267
G01 X58.9345 Y-37.4155
G01 X58.9958 Y-37.3820
G01 X59.0062 Y-37.3762
G01 X59.0265 Y-37.3638
G01 X59.0462 Y-37.3505
G01 X59.0559 Y-37.3435
G01 X59.0746 Y-37.3287
G01 X59.0925 Y-37.3132
G01 X59.1098 Y-37.2967
G01 X60.3067 Y-36.0998
G01 X60.3161 Y-36.0902
G01 X60.3340 Y-36.0703
G01 X60.3591 Y-36.0393
G01 X60.3741 Y-36.0198
G01 X60.3880 Y-35.9996
G01 X60.3946 Y-35.9893
G01 X60.4010 Y-35.9788
G01 X60.4129 Y-35.9573
G01 X60.4237 Y-35.9353
G01 X60.4287 Y-35.9241
G01 X60.4379 Y-35.9013
G01 X60.4421 Y-35.8898
G01 X60.4496 Y-35.8664
G01 X60.4692 Y-35.7994
G01 X60.4754 Y-35.7764
G01 X60.4781 Y-35.7648
G01 X60.4826 Y-35.7414
G01 X60.4860 Y-35.7179
G01 X60.4882 Y-35.6942
G01 X60.4894 Y-35.6704
G01 X60.4895 Y-34.9541
G01 X60.4939 Y-34.9043
G01 X60.5228 Y-34.8034
G01 X60.5385 Y-34.7734
G01 X60.5491 Y-34.7517
G01 X60.5588 Y-34.7295
G01 X60.5673 Y-34.7069
G01 X60.5840 Y-34.6557
G01 X60.5908 Y-34.6327
G01 X60.5965 Y-34.6095
G01 X60.5989 Y-34.5977
G01 X60.6029 Y-34.5741
G01 X60.6058 Y-34.5504
G01 X60.6068 Y-34.5385
G01 X60.6080 Y-34.5145
G01 X60.6080 Y-34.4906
G01 X60.6069 Y-34.4667
G01 X60.6046 Y-34.4429
G01 X60.5931 Y-34.3618
G01 X60.5912 Y-34.3496
G01 X60.5864 Y-34.3252
G01 X60.5805 Y-34.3011
G01 X60.5733 Y-34.2773
G01 X60.5693 Y-34.2655
G01 X60.5604 Y-34.2424
G01 X60.5504 Y-34.2196
G01 X60.5392 Y-34.1975
G01 X60.5270 Y-34.1759
G01 X60.5205 Y-34.1653
G01 X60.5067 Y-34.1446
G01 X60.4994 Y-34.1346
G01 X60.4918 Y-34.1247
G01 X60.4760 Y-34.1056
G01 X60.4220 Y-34.0435
G01 X60.4049 Y-34.0255
G01 X60.3868 Y-34.0085
G01 X60.3775 Y-34.0003
G01 X60.3582 Y-33.9846
G01 X60.3382 Y-33.9699
G01 X60.3279 Y-33.9629
G01 X60.3069 Y-33.9498
G01 X60.2961 Y-33.9436
G01 X60.2741 Y-33.9320
G01 X60.2629 Y-33.9267
G01 X60.2402 Y-33.9168
G01 X60.2169 Y-33.9080
G01 X60.2052 Y-33.9041
G01 X60.1148 Y-33.8775
G01 X60.1033 Y-33.8746
G01 X60.0800 Y-33.8695
G01 X60.0565 Y-33.8656
G01 X60.0329 Y-33.8628
G01 X60.0092 Y-33.8611
G01 X59.9854 Y-33.8605
G01 X47.5978 Y-33.8605
G01 X47.4578 Y-33.8383
G01 X47.3230 Y-33.7945
G01 X47.1967 Y-33.7302
G01 X47.0820 Y-33.6469
G01 X45.9131 Y-32.4780
G01 X45.8298 Y-32.3633
G01 X45.7655 Y-32.2370
G01 X45.7362 Y-32.1474
G01 X45.7274 Y-32.1243
G01 X45.7078 Y-32.0796
G01 X45.6971 Y-32.0581
G01 X45.6914 Y-32.0475
G01 X45.6792 Y-32.0268
G01 X45.6660 Y-32.0068
G01 X45.6519 Y-31.9873
G01 X45.6445 Y-31.9779
G01 X45.6290 Y-31.9595
G01 X45.6126 Y-31.9419
G01 X45.5451 Y-31.8761
G01 X45.5265 Y-31.8596
G01 X45.5169 Y-31.8518
G01 X45.4971 Y-31.8367
G01 X45.4870 Y-31.8296
G01 X45.4766 Y-31.8227
G01 X45.4555 Y-31.8098
G01 X45.4446 Y-31.8037
G01 X45.4226 Y-31.7923
G01 X45.4113 Y-31.7870
G01 X45.3885 Y-31.7773
G01 X45.3768 Y-31.7729
G01 X45.3533 Y-31.7650
G01 X45.3414 Y-31.7614
G01 X45.3174 Y-31.7552
G01 X45.2246 Y-31.7362
G01 X45.2124 Y-31.7342
G01 X45.1877 Y-31.7310
G01 X45.1630 Y-31.7291
G01 X45.1382 Y-31.7284
G01 X45.1133 Y-31.7289
G01 X45.1009 Y-31.7296
G01 X45.0762 Y-31.7320
G01 X45.0516 Y-31.7356
G01 X45.0273 Y-31.7404
G01 X45.0152 Y-31.7433
G01 X44.9913 Y-31.7499
G01 X44.9677 Y-31.7577
G01 X44.9561 Y-31.7620
G01 X44.8798 Y-31.7916
G01 X44.8689 Y-31.7963
G01 X44.8474 Y-31.8065
G01 X44.8368 Y-31.8119
G01 X44.8160 Y-31.8236
G01 X44.7894 Y-31.8405
G01 X44.6364 Y-31.9289
G01 X44.6072 Y-31.9412
G01 X44.5846 Y-31.9519
G01 X44.5626 Y-31.9637
G01 X44.5357 Y-31.9790
G01 X44.5150 Y-31.9914
G01 X44.5049 Y-31.9980
G01 X44.4852 Y-32.0120
G01 X44.4661 Y-32.0268
G01 X44.4569 Y-32.0346
G01 X44.4478 Y-32.0426
G01 X44.4303 Y-32.0592
G01 X44.4219 Y-32.0678
G01 X44.4056 Y-32.0857
G01 X44.3902 Y-32.1043
G01 X44.3829 Y-32.1138
G01 X44.3337 Y-32.1798
G01 X44.3198 Y-32.2004
G01 X44.3070 Y-32.2217
G01 X44.3009 Y-32.2325
G01 X44.2952 Y-32.2435
G01 X44.2845 Y-32.2659
G01 X44.2796 Y-32.2774
G01 X44.2707 Y-32.3005
G01 X44.2629 Y-32.3241
G01 X44.2562 Y-32.3480
G01 X44.2534 Y-32.3601
G01 X44.2485 Y-32.3845
G01 X44.2449 Y-32.4090
G01 X44.2425 Y-32.4337
G01 X44.2376 Y-32.5034
G00 Z2.0000
G00 X43.0962 Y-31.6344
G01 F60.00
G01 Z-0.6000
G01 F120.00
G01 X43.0728 Y-31.6051
G00 Z2.0000
G00 X43.0130 Y-31.5290
G01 F60.00
G01 Z-0.6000
G01 F120.00
G01 X42.7488 Y-31.1817
G00 Z2.0000
G00 X42.7900 Y-31.0361
G01 F60.00
G01 Z-0.6000
G01 F120.00
G01 X42.8094 Y-31.1137
G01 X42.8160 Y-31.1374
G01 X42.8237 Y-31.1607
G01 X42.8501 Y-31.2346
G01 X42.8590 Y-31.2575
G01 X42.8689 Y-31.2799
G01 X42.9025 Y-31.3509
G01 X42.9135 Y-31.3728
G01 X42.9256 Y-31.3942
G01 X42.9660 Y-31.4615
G01 X42.9791 Y-31.4822
G01 X42.9932 Y-31.5023
G01 X43.0400 Y-31.5654
G01 X43.0551 Y-31.5847
G01 X43.0711 Y-31.6033
G01 X43.1313 Y-31.6695
G01 X42.7205 Y-31.2587
G01 X42.7299 Y-31.2346
G01 X42.7563 Y-31.1607
G01 X42.7640 Y-31.1374
G01 X42.7706 Y-31.1137
G01 X42.7900 Y-31.0361
G00 Z2.0000
G00 X42.8472 Y-30.2935
G01 F60.00
G01 Z-0.6000
G01 F120.00
G01 X42.5900 Y-29.9186
G01 X42.3049 Y-29.4804
G01 X42.2924 Y-29.4602
G01 X41.5893 Y-29.4628
G01 X41.5877 Y-29.4602
G01 X41.5336 Y-29.4602
G01 X42.6185 Y-29.4602
G01 X43.0730 Y-29.9147
G01 X43.0630 Y-29.9259
G01 X43.0474 Y-29.9449
G01 X42.9932 Y-30.0177
G01 X42.9791 Y-30.0378
G01 X42.9660 Y-30.0585
G01 X42.9256 Y-30.1258
G01 X42.9194 Y-30.1364
G01 X42.9079 Y-30.1581
G01 X42.8638 Y-30.2512
G01 X42.8544 Y-30.2739
G01 X42.8501 Y-30.2854
G01 X42.8237 Y-30.3593
G01 X42.8160 Y-30.3826
G01 X42.8094 Y-30.4063
G01 X42.7900 Y-30.4839
G01 X42.7706 Y-30.4063
G01 X42.7640 Y-30.3826
G01 X42.7563 Y-30.3593
G01 X42.7299 Y-30.2854
G01 X42.7210 Y-30.2625
G01 X42.7111 Y-30.2401
G01 X42.6775 Y-30.1691
G01 X42.6665 Y-30.1472
G01 X42.6544 Y-30.1258
G01 X42.6140 Y-30.0585
G01 X42.6009 Y-30.0378
G01 X42.5940 Y-30.0276
G01 X42.5400 Y-29.9546
G01 X42.5249 Y-29.9353
G01 X42.5089 Y-29.9167
G01 X42.4562 Y-29.8585
G01 X42.4392 Y-29.8408
G01 X42.4215 Y-29.8238
G01 X42.3633 Y-29.7711
G01 X42.3447 Y-29.7551
G01 X42.3254 Y-29.7400
G01 X42.2623 Y-29.6932
G01 X42.2422 Y-29.6791
G01 X42.2215 Y-29.6660
G01 X42.1542 Y-29.6256
G01 X42.1328 Y-29.6135
G01 X42.1219 Y-29.6079
G01 X42.0399 Y-29.5689
G01 X42.0175 Y-29.5590
G01 X41.9946 Y-29.5501
G01 X41.9207 Y-29.5237
G01 X41.8974 Y-29.5160
G01 X41.8737 Y-29.5094
G01 X41.7976 Y-29.4904
G01 X41.7736 Y-29.4850
G01 X41.7494 Y-29.4808
G01 X41.6718 Y-29.4693
G01 X41.6474 Y-29.4663
G01 X41.6229 Y-29.4645
G01 X41.5336 Y-29.4602
G00 Z2.0000
G00 X40.9630 Y-29.5864
G01 F60.00
G01 Z-0.6000
G01 F120.00
G01 X40.8894 Y-29.4602
G00 Z2.0000
G00 X41.7562 Y-32.8405
G01 F60.00
G01 Z-0.6000
G01 F120.00
G01 X41.7579 Y-32.8427
G00 Z2.0000
G00 X45.5426 Y-36.6274
G01 F60.00
G01 Z-0.6000
G01 F120.00
G01 X45.5448 Y-36.6291
G00 Z2.0000
G00 X46.7509 Y-35.2891
G01 F60.00
G01 Z-0.6000
G01 F120.00
G01 X46.7530 Y-35.2908
G00 Z2.0000
G00 X47.8464 Y-33.8605
G01 F60.00
G01 Z-0.6000
G01 F120.00
G01 X47.8460 Y-33.8602
G01 X48.8400 Y-33.8602
G01 X48.8404 Y-33.8605
G01 X49.8929 Y-33.8602
G01 X49.8934 Y-33.8605
G01 X55.4654 Y-33.8602
G01 X55.4664 Y-33.8605
G00 Z2.0000
G00 X55.7420 Y-32.0598
G01 F60.00
G01 Z-0.6000
G01 F120.00
G01 X55.6892 Y-32.0431
G01 X55.3480 Y-31.9257
G01 X55.0024 Y-31.7970
G00 Z2.0000
G00 X55.3994 Y-31.3047
G01 F60.00
G01 Z-0.6000
G01 F120.00
G01 X55.5502 Y-31.3608
G01 X55.6202 Y-31.3849
G00 Z2.0000
G00 X55.6343 Y-30.1113
G01 F60.00
G01 Z-0.6000
G01 F120.00
G01 X55.3637 Y-30.0030
G01 X55.2348 Y-29.9478
G00 Z2.0000
G00 X55.6502 Y-29.4715
G01 F60.00
G01 Z-0.6000
G01 F120.00
G01 X55.8736 Y-29.5608
G01 X56.0960 Y-29.6435
G00 Z2.0000
G00 X56.7464 Y-29.4602
G01 F60.00
G01 Z-0.6000
G01 F120.00
G01 X56.6571 Y-29.4645
G01 X56.6326 Y-29.4663
G01 X56.6082 Y-29.4693
G01 X56.5306 Y-29.4808
G01 X56.5064 Y-29.4850
G01 X56.4824 Y-29.4904
G01 X56.4063 Y-29.5094
G01 X56.3826 Y-29.5160
G01 X56.3593 Y-29.5237
G01 X56.2854 Y-29.5501
G01 X56.2625 Y-29.5590
G01 X56.2512 Y-29.5638
G01 X56.1691 Y-29.6025
G01 X56.1472 Y-29.6135
G01 X56.1258 Y-29.6256
G01 X56.0585 Y-29.6660
G01 X56.0378 Y-29.6791
G01 X56.0177 Y-29.6932
G01 X55.9546 Y-29.7400
G01 X55.9353 Y-29.7551
G01 X55.9167 Y-29.7711
G01 X55.8585 Y-29.8238
G01 X55.8408 Y-29.8408
G01 X55.8238 Y-29.8585
G01 X55.7711 Y-29.9167
G01 X55.7630 Y-29.9259
G01 X55.7474 Y-29.9449
G01 X55.6932 Y-30.0177
G01 X55.6791 Y-30.0378
G01 X55.6660 Y-30.0585
G01 X55.6256 Y-30.1258
G01 X55.6135 Y-30.1472
G01 X55.6025 Y-30.1691
G01 X55.5689 Y-30.2401
G01 X55.5590 Y-30.2625
G01 X55.5501 Y-30.2854
G01 X55.5237 Y-30.3593
G01 X55.5160 Y-30.3826
G01 X55.5094 Y-30.4063
G01 X55.4900 Y-30.4839
G01 X55.4706 Y-30.4063
G01 X55.4640 Y-30.3826
G01 X55.4563 Y-30.3593
G01 X55.4299 Y-30.2854
G01 X55.4256 Y-30.2739
G01 X55.4162 Y-30.2512
G01 X55.3721 Y-30.1581
G01 X55.3606 Y-30.1364
G01 X55.3544 Y-30.1258
G01 X55.3140 Y-30.0585
G01 X55.3009 Y-30.0378
G01 X55.2868 Y-30.0177
G01 X55.2326 Y-29.9449
G01 X55.2170 Y-29.9259
G01 X55.2070 Y-29.9147
G01 X55.6615 Y-29.4602
G01 X56.7464 Y-29.4602
G00 Z2.0000
G00 X57.5662 Y-29.4602
G01 F60.00
G01 Z-0.6000
G01 F120.00
G01 X57.7368 Y-29.5007
G01 X58.0177 Y-29.5602
G01 X58.3001 Y-29.6127
G01 X58.5836 Y-29.6584
G01 X58.8681 Y-29.6970
G01 X59.1535 Y-29.7287
G01 X59.4396 Y-29.7533
G01 X59.7262 Y-29.7709
G01 X60.0132 Y-29.7815
G01 X60.3003 Y-29.7850
G01 X60.5874 Y-29.7815
G01 X60.8744 Y-29.7709
G01 X61.1610 Y-29.7533
G01 X61.4471 Y-29.7287
G01 X61.7325 Y-29.6970
G01 X62.0171 Y-29.6584
G01 X62.3006 Y-29.6127
G01 X62.5591 Y-29.5646
G01 X63.0642 Y-30.0698
G01 X62.9953 Y-30.0861
G01 X62.6999 Y-30.1487
G01 X62.4031 Y-30.2039
G01 X62.1051 Y-30.2519
G01 X61.8060 Y-30.2925
G01 X61.5059 Y-30.3258
G01 X61.2051 Y-30.3517
G01 X60.9038 Y-30.3702
G01 X60.6022 Y-30.3813
G01 X60.3003 Y-30.3850
G01 X59.9984 Y-30.3813
G01 X59.6968 Y-30.3702
G01 X59.3955 Y-30.3517
G01 X59.0947 Y-30.3258
G01 X58.7947 Y-30.2925
G01 X58.4955 Y-30.2519
G01 X58.1975 Y-30.2039
G01 X57.9080 Y-30.1500
G00 Z2.0000
G00 X58.0592 Y-30.7884
G01 F60.00
G01 Z-0.6000
G01 F120.00
G01 X58.0949 Y-30.7951
G01 X58.4075 Y-30.8454
G01 X58.7212 Y-30.8880
G01 X59.0359 Y-30.9229
G01 X59.3513 Y-30.9500
G01 X59.6673 Y-30.9695
G01 X59.9837 Y-30.9811
G01 X60.3003 Y-30.9850
G01 X60.6169 Y-30.9811
G01 X60.9333 Y-30.9695
G01 X61.2493 Y-30.9500
G01 X61.5647 Y-30.9229
G01 X61.8794 Y-30.8880
G01 X62.1931 Y-30.8454
G01 X62.5057 Y-30.7951
G01 X62.8170 Y-30.7371
G01 X63.1267 Y-30.6716
G01 X63.4347 Y-30.5984
G01 X63.5599 Y-30.5654
G01 X64.0479 Y-31.0534
G01 X63.9009 Y-31.0960
G01 X63.5805 Y-31.1804
G01 X63.2582 Y-31.2570
G01 X62.9340 Y-31.3256
G01 X62.6083 Y-31.3862
G01 X62.2812 Y-31.4389
G01 X61.9528 Y-31.4835
G01 X61.6235 Y-31.5200
G01 X61.2934 Y-31.5484
G01 X60.9627 Y-31.5687
G01 X60.6316 Y-31.5809
G01 X60.3003 Y-31.5850
G01 X59.9690 Y-31.5809
G01 X59.6379 Y-31.5687
G01 X59.3072 Y-31.5484
G01 X58.9771 Y-31.5200
G01 X58.6478 Y-31.4835
G01 X58.3194 Y-31.4389
G01 X57.9923 Y-31.3862
G01 X57.9077 Y-31.3705
G00 Z2.0000
G00 X57.4105 Y-31.8846
G01 F60.00
G01 Z-0.6000
G01 F120.00
G01 X57.5495 Y-31.9141
G01 X57.8897 Y-31.9774
G01 X58.2314 Y-32.0324
G01 X58.4332 Y-32.0598
G01 X56.7736 Y-32.0598
G01 X56.8629 Y-32.0555
G01 X56.8874 Y-32.0537
G01 X56.9118 Y-32.0507
G01 X56.9894 Y-32.0392
G01 X57.0136 Y-32.0350
G01 X57.0376 Y-32.0296
G01 X57.1137 Y-32.0106
G01 X57.1374 Y-32.0040
G01 X57.1607 Y-31.9963
G01 X57.2346 Y-31.9699
G01 X57.2575 Y-31.9610
G01 X57.2799 Y-31.9511
G01 X57.3509 Y-31.9175
G01 X57.3728 Y-31.9065
G01 X57.3942 Y-31.8944
G01 X57.4615 Y-31.8540
G01 X57.4822 Y-31.8409
G01 X57.5023 Y-31.8268
G01 X57.5654 Y-31.7800
G01 X57.5847 Y-31.7649
G01 X57.6033 Y-31.7489
G01 X57.6615 Y-31.6962
G01 X57.6792 Y-31.6792
G01 X57.6962 Y-31.6615
G01 X57.7489 Y-31.6033
G01 X57.7649 Y-31.5847
G01 X57.7800 Y-31.5654
G01 X57.8268 Y-31.5023
G01 X57.8409 Y-31.4822
G01 X57.8540 Y-31.4615
G01 X57.8944 Y-31.3942
G01 X57.9065 Y-31.3728
G01 X57.9175 Y-31.3509
G01 X57.9511 Y-31.2799
G01 X57.9610 Y-31.2575
G01 X57.9699 Y-31.2346
G01 X57.9963 Y-31.1607
G01 X58.0040 Y-31.1374
G01 X58.0106 Y-31.1137
G01 X58.0296 Y-31.0376
G01 X58.0350 Y-31.0136
G01 X58.0392 Y-30.9894
G01 X58.0507 Y-30.9118
G01 X58.0537 Y-30.8874
G01 X58.0555 Y-30.8629
G01 X58.0594 Y-30.7845
G01 X58.0600 Y-30.7600
G01 X58.0594 Y-30.7355
G01 X58.0555 Y-30.6571
G01 X58.0537 Y-30.6326
G01 X58.0507 Y-30.6082
G01 X58.0392 Y-30.5306
G01 X58.0350 Y-30.5064
G01 X58.0296 Y-30.4824
G01 X58.0106 Y-30.4063
G01 X58.0040 Y-30.3826
G01 X57.9963 Y-30.3593
G01 X57.9699 Y-30.2854
G01 X57.9610 Y-30.2625
G01 X57.9511 Y-30.2401
G01 X57.9175 Y-30.1691
G01 X57.9065 Y-30.1472
G01 X57.8944 Y-30.1258
G01 X57.8540 Y-30.0585
G01 X57.8409 Y-30.0378
G01 X57.8268 Y-30.0177
G01 X57.7800 Y-29.9546
G01 X57.7649 Y-29.9353
G01 X57.7489 Y-29.9167
G01 X57.6962 Y-29.8585
G01 X57.6792 Y-29.8408
G01 X57.6615 Y-29.8238
G01 X57.6033 Y-29.7711
G01 X57.5847 Y-29.7551
G01 X57.5654 Y-29.7400
G01 X57.5023 Y-29.6932
G01 X57.4822 Y-29.6791
G01 X57.4615 Y-29.6660
G01 X57.3942 Y-29.6256
G01 X57.3728 Y-29.6135
G01 X57.3509 Y-29.6025
G01 X57.2799 Y-29.5689
G01 X57.2575 Y-29.5590
G01 X57.2346 Y-29.5501
G01 X57.1607 Y-29.5237
G01 X57.1374 Y-29.5160
G01 X57.1137 Y-29.5094
G01 X57.0376 Y-29.4904
G01 X57.0136 Y-29.4850
G01 X56.9894 Y-29.4808
G01 X56.9118 Y-29.4693
G01 X56.8874 Y-29.4663
G01 X56.8629 Y-29.4645
G01 X56.7736 Y-29.4602
G01 X62.4547 Y-29.4602
G01 X65.3048 Y-32.3103
G01 X65.2716 Y-32.2802
G01 X65.2531 Y-32.2641
G01 X65.2337 Y-32.2490
G01 X65.2022 Y-32.2256
G01 X65.1821 Y-32.2115
G01 X65.1614 Y-32.1984
G01 X65.1277 Y-32.1782
G01 X65.1063 Y-32.1661
G01 X65.0844 Y-32.1551
G01 X65.0489 Y-32.1383
G01 X65.0265 Y-32.1283
G01 X65.0036 Y-32.1195
G01 X64.9666 Y-32.1063
G01 X64.9433 Y-32.0986
G01 X64.9196 Y-32.0920
G01 X64.8815 Y-32.0825
G01 X64.8576 Y-32.0771
G01 X64.8334 Y-32.0729
G01 X64.7946 Y-32.0671
G01 X64.7702 Y-32.0641
G01 X64.7457 Y-32.0623
G01 X64.6943 Y-32.0600
G01 X56.7736 Y-32.0598
G00 Z2.0000
G00 X58.3155 Y-33.8602
G01 F60.00
G01 Z-0.6000
G01 F120.00
G01 X58.3177 Y-33.8605
G00 Z2.0000
G00 X60.3578 Y-33.9843
G01 F60.00
G01 Z-0.6000
G01 F120.00
G01 X60.6905 Y-33.9802
G01 X61.0805 Y-33.9658
G01 X61.4700 Y-33.9419
G01 X61.8588 Y-33.9084
G01 X62.2466 Y-33.8654
G01 X62.2851 Y-33.8602
G01 X62.0578 Y-34.4900
G01 X62.3201 Y-34.4609
G01 X62.7214 Y-34.4064
G01 X63.1212 Y-34.3421
G01 X63.5193 Y-34.2680
G01 X63.9155 Y-34.1841
G01 X64.3095 Y-34.0905
G01 X64.4915 Y-34.0426
G01 X64.8388 Y-34.5714
G01 X64.8611 Y-34.5656
G01 X64.9800 Y-34.5311
G00 Z2.0000
G00 X65.3441 Y-34.8952
G01 F60.00
G01 Z-0.6000
G01 F120.00
G01 X65.7298 Y-35.2809
G01 X65.7298 Y-35.8264
G01 X65.7253 Y-35.7322
G01 X65.7235 Y-35.7077
G01 X65.7205 Y-35.6833
G01 X65.7083 Y-35.6008
G01 X65.7041 Y-35.5766
G01 X65.6987 Y-35.5527
G01 X65.6784 Y-35.4718
G01 X65.6719 Y-35.4481
G01 X65.6642 Y-35.4248
G01 X65.6361 Y-35.3463
G01 X65.6272 Y-35.3234
G01 X65.6173 Y-35.3009
G01 X65.5816 Y-35.2255
G01 X65.5706 Y-35.2036
G01 X65.5585 Y-35.1823
G01 X65.5156 Y-35.1107
G01 X65.5025 Y-35.0900
G01 X65.4884 Y-35.0699
G01 X65.4387 Y-35.0029
G01 X65.4236 Y-34.9836
G01 X65.4075 Y-34.9650
G01 X65.3441 Y-34.8952
G00 Z2.0000
G00 X65.4506 Y-35.0190
G01 F60.00
G01 Z-0.6000
G01 F120.00
G01 X65.4637 Y-35.0148
G00 Z2.0000
G00 X65.7023 Y-35.5685
G01 F60.00
G01 Z-0.6000
G01 F120.00
G01 X65.7298 Y-35.5599
G00 Z2.0000
G00 X65.7298 Y-36.1877
G01 F60.00
G01 Z-0.6000
G01 F120.00
G01 X65.6799 Y-36.2021
G01 X65.7298 Y-36.8123
G01 X65.5012 Y-36.8786
G01 X65.0905 Y-36.9869
G01 X65.7298 Y-37.4370
G01 X65.6612 Y-37.4569
G01 X65.1842 Y-37.5826
G01 X64.7042 Y-37.6966
G01 X64.2216 Y-37.7988
G01 X63.7366 Y-37.8891
G01 X63.2496 Y-37.9674
G01 X62.7608 Y-38.0338
G01 X62.2705 Y-38.0882
G01 X61.7790 Y-38.1305
G01 X61.2866 Y-38.1608
G01 X60.7936 Y-38.1789
G01 X60.7739 Y-38.1792
G00 Z2.0000
G00 X60.1697 Y-38.7834
G01 F60.00
G01 Z-0.6000
G01 F120.00
G01 X60.3003 Y-38.7850
G01 X60.8083 Y-38.7788
G01 X61.3160 Y-38.7601
G01 X61.8231 Y-38.7289
G01 X62.3293 Y-38.6853
G01 X62.8342 Y-38.6293
G01 X63.3376 Y-38.5610
G01 X63.8392 Y-38.4802
G01 X64.3387 Y-38.3873
G01 X64.8357 Y-38.2820
G01 X65.3300 Y-38.1646
G01 X65.7298 Y-38.0593
G01 X65.2194 Y-38.8076
G01 X64.9672 Y-38.8675
G01 X64.4557 Y-38.9757
G01 X63.9418 Y-39.0714
G01 X63.4257 Y-39.1545
G01 X62.9077 Y-39.2248
G01 X62.3881 Y-39.2824
G01 X61.8672 Y-39.3273
G01 X61.3454 Y-39.3593
G01 X60.8230 Y-39.3786
G01 X60.3769 Y-39.3841
G00 Z2.0000
G00 X60.4944 Y-39.9826
G01 F60.00
G01 Z-0.6000
G01 F120.00
G01 X60.4977 Y-39.9826
G00 Z2.0000
G00 X60.4900 Y-40.5827
G01 F60.00
G01 Z-0.6000
G01 F120.00
G01 X60.4895 Y-40.5827
G01 X60.4900 Y-41.1827
G01 X60.4895 Y-41.1827
G00 Z2.0000
G00 X60.4902 Y-41.7827
G01 F60.00
G01 Z-0.6000
G01 F120.00
G01 X60.4895 Y-41.7827
G00 Z2.0000
G00 X62.6530 Y-42.2705
G01 F60.00
G01 Z-0.6000
G01 F120.00
G01 X62.6588 Y-42.2700
G00 Z2.0000
G00 X62.8205 Y-42.2526
G01 F60.00
G01 Z-0.6000
G01 F120.00
G01 X62.8239 Y-42.2523
G00 Z2.0000
G00 X63.7809 Y-42.1335
G01 F60.00
G01 Z-0.6000
G01 F120.00
G01 X63.7885 Y-42.1325
G00 Z2.0000
G00 X65.3565 Y-41.8513
G01 F60.00
G01 Z-0.6000
G01 F120.00
G01 X65.3592 Y-41.8507
G00 Z2.0000
G00 X65.7084 Y-41.1580
G01 F60.00
G01 Z-0.6000
G01 F120.00
G01 X65.7109 Y-41.1574
G00 Z2.0000
G00 X65.8994 Y-40.6742
G01 F60.00
G01 Z-0.6000
G01 F120.00
G01 X65.8755 Y-40.7001
G01 X65.8595 Y-40.7195
G01 X65.8444 Y-40.7396
G01 X65.8372 Y-40.7500
G01 X65.8237 Y-40.7712
G01 X65.8112 Y-40.7931
G01 X65.7999 Y-40.8156
G01 X65.7664 Y-40.8909
G01 X65.7573 Y-40.9129
G01 X65.7493 Y-40.9353
G01 X65.7423 Y-40.9580
G01 X65.7364 Y-40.9811
G01 X65.7316 Y-41.0044
G01 X65.7279 Y-41.0279
G01 X65.7074 Y-41.1840
G01 X65.6616 Y-41.3550
G01 X65.5938 Y-41.5186
G01 X65.5053 Y-41.6719
G01 X65.3975 Y-41.8124
G01 X65.2724 Y-41.9375
G01 X65.1319 Y-42.0453
G01 X64.9786 Y-42.1338
G01 X64.8150 Y-42.2016
G01 X64.6440 Y-42.2474
G01 X64.4685 Y-42.2705
G01 X64.2915 Y-42.2705
G01 X64.1160 Y-42.2474
G01 X63.9450 Y-42.2016
G01 X63.7814 Y-42.1338
G01 X63.7034 Y-42.0891
G01 X63.6854 Y-42.0796
G01 X63.6633 Y-42.0692
G01 X63.6520 Y-42.0643
G01 X63.6292 Y-42.0555
G01 X63.6059 Y-42.0478
G01 X63.5942 Y-42.0444
G01 X63.5824 Y-42.0413
G01 X63.5585 Y-42.0359
G01 X63.4654 Y-42.0197
G01 X63.4407 Y-42.0166
G01 X63.4283 Y-42.0155
G01 X63.4035 Y-42.0143
G01 X63.3787 Y-42.0144
G01 X63.3539 Y-42.0156
G01 X63.3415 Y-42.0167
G01 X63.3169 Y-42.0198
G01 X63.2924 Y-42.0241
G01 X63.2682 Y-42.0297
G01 X63.2443 Y-42.0364
G01 X63.2208 Y-42.0443
G01 X63.1977 Y-42.0534
G01 X63.1224 Y-42.0852
G01 X63.1009 Y-42.0955
G01 X63.0799 Y-42.1068
G01 X63.0697 Y-42.1128
G01 X63.0496 Y-42.1255
G01 X63.0301 Y-42.1392
G01 X63.0113 Y-42.1538
G01 X62.9668 Y-42.1901
G01 X62.8766 Y-42.2372
G01 X62.7757 Y-42.2661
G01 X62.7259 Y-42.2705
G01 X60.9541 Y-42.2705
G01 X60.9043 Y-42.2661
G01 X60.8034 Y-42.2372
G01 X60.7132 Y-42.1901
